/* XPM */
static char * East_xpm[] = {
"128 128 72 1",
" 	c #0B0D0B",
".	c #0C0E0E",
"+	c #0D0E0C",
"@	c #0B0F0C",
"#	c #0E0F0D",
"$	c #0C100D",
"%	c #0D100F",
"&	c #0D110D",
"*	c #0D1110",
"=	c #0E110E",
"-	c #0E1111",
";	c #0D1211",
">	c #0E120E",
",	c #0E1211",
"'	c #0F1210",
")	c #0E1310",
"!	c #0E1312",
"~	c #0F1413",
"{	c #101411",
"]	c #0E1513",
"^	c #0E1515",
"/	c #0D1614",
"(	c #0F1612",
"_	c #0F1616",
":	c #0E1716",
"<	c #101818",
"[	c #101916",
"}	c #101918",
"|	c #0F1A17",
"1	c #101A19",
"2	c #0F1B1A",
"3	c #101B1B",
"4	c #101C1C",
"5	c #0E1E1E",
"6	c #0F1E1D",
"7	c #102020",
"8	c #112323",
"9	c #112524",
"0	c #112626",
"a	c #11292A",
"b	c #122B2C",
"c	c #122D2F",
"d	c #132D2E",
"e	c #142F31",
"f	c #133032",
"g	c #143234",
"h	c #143335",
"i	c #153638",
"j	c #15373A",
"k	c #15393D",
"l	c #16393B",
"m	c #163B3D",
"n	c #153C40",
"o	c #163E42",
"p	c #164146",
"q	c #184348",
"r	c #1B464B",
"s	c #1D4A4E",
"t	c #1E4D52",
"u	c #1F5358",
"v	c #1F5D65",
"w	c #24666E",
"x	c #266D76",
"y	c #27717B",
"z	c #287680",
"A	c #2A7A84",
"B	c #2C7F8A",
"C	c #2C838F",
"D	c #2D8894",
"E	c #2E8D9A",
"F	c #2F919E",
"G	c #3095A2",
"+.++++   +..+@...@.++@@+.@..@@%@@@@@%%%%.%%%@..@@@%.%@@.$%%$%.%@@%@# +@.%%.@%$%%.@@@.%..@.@%..+@@@@@+.+.@.@.@@++++.+.++ ++++..@.",
"+..++++ .+@.++.+.@@..+.+.@@@@.@@.#.%$$#@$%%%%%@%%%$$#%@%$$%$@%$@$$%. .%%%$%%$@.$@@#%%.%@@@%.@.#@@.@+++@@@.+.@...+++++@  +++@.@.@",
"..@+++    ..+..@%@@@@+++%%%%@%.@@.+@$%%%$.%@$$%$.%%%%$%%%%%%%%$%#$%+@ +$%%$%%%%%#.%%@%%%%%..%#@%%.@@.@@@..+.#%.@++...+++ ++.++@.",
"++.+.+  +  +##%.#++@@+@+@%$%%+.@#++.%#+#++@%%%=**$%%%%@@%$$$@@#%@+   ++@%%%#%$.$$%%##%%#$+@$$%+@%%@##.@+++++@#+@@#@@++  +++++@.+",
".....++     +++ +++++ ++++#++ ++  +@+++++++++%+#@+++###+###++++++++++++++@+++##++@++++++@++#++++@++++++++++++  +++++ + ++++.+++.",
"..@@+++++@    ++ + ++ +   +   +++  @  +++ ++++++++++++++++++++++++++++++++++++++++++++++++ + ++     ++++  +   +++++    ++ .+++@.",
"++.@.++++++#+..###@+++#+%#@@++@++@+++++   ++++++++#%%###@@###++#%%%$##@#=%%%$##$%%#.#@+.###+  + +@@+@+##++++.+@%%#. +  ++ @+++@+",
"++++@++ + ##.@%#.+.+++.#..+++@++@#.@+.+#$+ +  $%$#%%%%%%%@$%.%%$%%%%$%$$$*=$$.@%%%@.%%%%@@@%+  +$%%+#.@@++.@.+@.#@.+.+ +++++..@+",
"++++++++++.+@.+@.+@..+@.@++++++@@%@@@@%$$$+  @%%%%$%%%%%$%$%%%@@%%%%%=%%%*%%%%%%%%%.%%%%#%#@@++#@.@...@@++++++..+...@@  +++.++++",
"++++++++@.@++%..+.....++.++++@@#@%+..%%%%%#++$%%$%%$$%%%$%%%%@@$.%$%%$$$%%.%$%.%%@%@$%%%.#@@%++%%++@@@@@@.+..+@+.++++.+++++.+@++",
"@ ++  + ++..+++@++.@@%@+++.+.@%.@.++@$%%%$#+++%%%%%%%$@%%$$$#@@%$%%$%%%%$%@.@.%%%@%$%%$@@##@#+++.++@@@#.@@.....+++.++++ +++++.@.",
"++++    ++@.@.@@@+..+.#.@++.#@%@@@+@%%%%%%%++#%%%*=%$$$$%%.$##.%%$@%$$%#%%.$%..%@%%%$$%@#@++++@#++@%@@.@@..@.@@+@++..++ ++++++@@",
"+++++ ++++%@%@@#@#.@@@@......@#@...@#%%$%%%++#@$%*$$%$$$.$$%$@%%%$@%%$%$%.#$%$%%%$$%%%%+.@@.++@+@+@@@+#.@.@@@.+..++.++++ ++++@@.",
" ++++  + +.@@.@@@.+...@..@@@@@#@@@#.%%%@%%%+++$%$%.%$%%..$%$#.$$%%$$$$%%$#%%%$%%%%%$%%$.@@.@+++@@@@.@@@@@@@@+.@+.++++.+@++++++@@",
"+ +++ @  +..++@@..@@@@@%%.@@@%$@%@%%$%%$%$@+++%%%%%%%$$%%@%$$%##%%$%$%$%$$%$%%%$%%%%%$%#@@++@@+@%.@@@##@#.@@@@...@..+@+@+++.+++.",
"++ ++    +.++.+@@@@@@.@@@.@@@..#$%.%$%%=%%@++#%%%$.%$%$.#%$%%%%$$%%$$%$$%$$%%%$%%%%%@%%$@%%.#++@%%..@@..@..@...@@.@..+ ++++++++.",
"  @++   @+..+.++.+@..@.@@+.#@@.%$%%$$%%%%#$++#$$%%%%%%#%%%%%%$$%$%*=%@.$%$%%$%%%%%$$.%$%%%%%%@+$%$$@#.@+.@.@.@++..#@%.++ ++++++@",
"++++   + +++++.@@..@.@.+++@@+@%@%$%%%*$#@$#++.$%%$%%%%%%%*;*$$%%$**%@#%%%=%$%==%%%%@@#%%%%$%%++#$%.@%@#+#%@#@..+@.@@.@+++ ++++.+",
"@@+++  @ ++@...@+@%@%%.@.+##@%@##$%$$%@##%%+@%%%%$%%$$=**,-=%%%=*%%%@$$$%%%=%**%$%##%.@@$$%%%++%%$%$.%.@..+.+.+++.@.$@+  ++++@%@",
"@@++++    ..@..@@@#.%.%%@%#%#####%%%%%##%*$@+#%=%=%%***,*,*******%@#$$$$$%****'%%$%=%%%$$%=%@+ +$%%%#%##@@.@.@@.@.@@%+  + @+.@@+",
"..@+ ++@   .@+@%.+++@%.%#%.#%@#.#%#%%#$%%%+++@$***#****;=*=*%%%%%$$$$$$=$@@%*-*$******=$*%%% ++++@.%.+#%%@%@#..$%.#@+++ ++++..++",
".++.+ +     + +++ +@   +++  ++++++@+++##@+@++@++@++@$%$@++@$#++++@+$$#$$&$@@@%$@@%$@$$+++@+++++ + +++ ++++++++ ++++  + ++ @++++.",
"@@@@+++ @         +          +++++++@+@+++#@@#++@@@@+@@@@@@@@@+@@@@@++$==$#@@@@@@@@++@$@+++++++++++++  ++ ++  ++++    ++++++++.@",
"@..@++++   ++++##$%%#@#++ + #%%#%#$%$#$$==*=**=.$$#@#%%*=$=$$$$';;*%@@#$$$$+&$@@@@$#$%%%%$%*$$%#+$###+++++%%++##++++   ++++++..@",
"@...++++++##.#..@@%%%.$#++ #%%$#%$%%%$#%**==*,,==$=$,**,'%=**,***,!=$$$==$$$==@#@,,*%%=**%%*%=%%%$%%#@+.@#%%@%%@#.++.@ +++++++..",
"...+++  ++@.@@.+..@@@@.%@++%#.#%%%%%=%%%=*%****%**,;,**;*===*';**;'=$=&$===$==$@$,,,%%%=;**%**%@%@%%#@#@..#%#%@@.@@..@++.+++ +++",
".@.++.   +++++@.@@+.@@%%$++@@$%.@%$%%%$%,*=****=,*);!*;*=%;;;;;!!)=*=;>==>)'==$@$*'**=%*****%$#%%.@$%.#%$@%%%@#@@..@@%@+++++++++",
"@.+@@ @ + +.++@@@.@@.%%%@++@.%.@%$.%$$%%,*%***,,*,*,'**='=;!;;;!!;,,));*$=''>'$@=,;,*;***%**%$#$%#%$%@%%%$%%%%%%@@..@%+ ++++++++",
"+.+ +   +++++.#%@#@@@%%$#++%@%%@$%%%%%%*,***=',,'',),';,',,;;,!;!!!~~!;;=*''>$$==)'*,,,***%%%$%%%$.$#@.%%%%%%$%%%@@@.++++++++++.",
".++++  + @@.@@.%%%@.###%+++$%@+#%%=*%==*;*,',,,!!),'*',!!,;;))!!~~^~^!!!;;;,'!=$$),,,,,,**%%*%%%%$$$$#@+$%.#.+@#@@@@+.+++++ ++++",
"+++.+   +++@%%%@.%@%.$%%#@++++$%$$%%=%%*;,',,,!!,,!!,,!~!);,;!~~^^^^,)]~!!!!!!'$$',**,**;,*%*=%$%%$$%@++.#@@+++@.+..@.+++++++++@",
"@+..+++ +++..%@@@@@%$%$$+++%%#$$$%%%*;*';,;;=*,)!))~!!!!,,,,)~^^^~]^]~~]~^!!!,$$;,,,!!;,',***=%==$$$#%+@@++@++++.+..@.++++++++.#",
"++@...@+@+.@..@@@@#.%@@%@+@%$%$%%*%$%*,,*;,*=*''!~!~^]]!),!]]^_:_^:^^~^]_:^^~)===!!,),,,)),**%$%$%%$%%%@.@+...@@.+#@@@+.++++@@.@",
"+.@@.@++++....%@.%%@@@+%@+@$$$%%$%=**;;!!!,;**!]!]]^~^!]]~~]^::::_::^/:<::::]])=*~!!!!!~!!!,*%%$%*%%#%@%%@@%@@@##@%@%.++++++..@+",
"+@%@@+++@+...@@%@%@@@+++++@.@%$$%%%*=*',!!,;;!!~^^~~^:~~~^:_::}<}<::::<}}:<<::~;!^~~~,!!,,,===$$*%%%%@#%#@..@@@@%#...##+ +.@.#@@",
"+@..+@+ ++%%.@%#@%%@@+++$$$$@@##=,,,**'!!!,,!]]~::::<::^:::11}1}}::132}2111}}1:!^::~~!!!,,*=*%=;**%@@.@%%%%@%%.%%@.@@%%++++++@@@",
"+@@@++ +++%%@.@@@%%@@#@++$$+$+@=$*'*,;*!~~~,]]~^::}}}::}1224424123444432244322://<_~^~~~~*****''*%$@@#%%%*%%@..@%%.%%$+++++++@.@",
"@@.@.++ ++++%#%++++@@+ ++++++$$=@%=*'*$~~]]!!~^_:}123:}455431236677635444424222}::__:]_~~=,'*=$$$=$+@+@%%%$%#+@@%.+.+++++++.+.@@",
"%@..+++   +@+ + +++++ +++++===&>+@@$$@$$=*=;;;!^:::}}}}}333666556655533331}}}231|/^/!;;=;===$==$$#$$@++++++++++++++  +++++++@.@+",
"@@@+@++ +   ++++++###.++@#+$=$$$+$@@@@$$$$)=;!!^^^}1347775677877555755665576142|:/^~~]];;========$+$+++ @++ +#+ +  +  ++++...@@.",
".++++.+  @+%%%#$$%%%%%$%%%$#=&=$#%%%=$==$==;!~]:14789aaaaabbdcbbbbddb00babb00974<}:::_^^~){)='=''=@+$$+++++@%$.%$%#@+++++++%@@@.",
"@+++++++@+@@@@%%$%%%%%%%$$.$$$&$$=$%*$,~!$*;,^[379deegeghghiijjiijjkiihjiihhhfd072}::_^~!]])>)>>'>$$$++++.@%%@%$%##$%#+++++.+@@@",
"@++++ +++##@@@%%$%#@@%%%%%%%+$$$$*%=*,!~~);!_[}70fnrqrrrsrrrstsrrrssrsqrrrqpqqiea72:::_^~~](>)'')>=$$@@+@@%##%$%#%@%$$+++ ++@.@.",
"@+@+@+++ #%.@@@@@@%@@.%%$%%%%#$**'';)!!~_~!_:}29cvGGFEFFGGFEFGFFGFGEFFEEFFEDFEDqf941[::_^~))'$''=>=@$$@#$%$$%$%@.#%$%%#+ ++.@.%.",
"+.++.+++++@..%.@#@@@#%@%$%%$%=%%!!!!],,~:~!:[}40fzECyyxyzzyAABzzBBAzzzzAzzzBzCEyib72}}:^~]),;==$$&$$$$@%%$$$%.@@@#.$%##+ +++.@@@",
"..++++++++#.+..@..#%@.%%%$%%%=**;,]!!~~~^!!/}14bgyFtonnkknknnnppppppppoppoopptEAle7411:^]~~!'==$$+@$=$%$%%%%%@@.@$.%.%@++++.@@@@",
".+++++++@++.@@...%.@@@$$%%$$****,=,,]~~^^!!:137agxFtnjjihiikhknknnnnnnnnnknnptEzme842::^^^~!;**=$@$$%*%$%%%%%@@#%@$%@%+++@++.@@.",
".@@++ +   +@..@@@@@@%.%@%%%%%%*;%*')~~^^:]!:147bhAGtnfcceehggikjkkkkkkkkkijnqtFyke85}:::/~~!!)!=*@@%,*$%%.%%#%%%%%%@@%#++ +@@@..",
".+.++++ +...@%@@..@@%@...$%$%$$%=*;'~]~_:/!^247dizFtkeddeglkknnnoooooopponnpqtFzkc82::^^~~~~~~)=%$@%=%=%%%$$@%..%%%%.$#+++++@@@@",
"@+..+++.+.%%%%$%$.@.+.@.%@*%%%$$%*,]~_^_::^/148fkzEsjeccikopppqppqqqqqrrqqrrruFBkc71:<:___:~~~,'=$@*%=%%%%.%$%%%@@@@%$+++++++.@.",
"...+.++++..%%%$%%$.@@.@#$$$$%$$%='!~~^_:<}!}448clzFsjffhkvCECDDCCBCCCCDDDDDDDDEykd8411:::_~];*;;*$.*==*%$%%%$$%%$.$%@%#+++++.+.@",
"@..@+++++@..%$%%$$%.@.@@%%$$%$%=*,!!~^::}:/}460gmAEsmgeikCEEDCECABCCDDDCCCCDDDAof0763}}:^~],*,,**@@%%*==%$$%$$%$.%$.$%+++++..+.+",
"+.+..+@++@#@.%.%%%%%$%.@%%%*%=%*!!!~~~_^::^:249fkAGtkcejnFDpqppooonnnoonnnonnnkfa762}:::])'';'',~@@=**=%%%=%$%%%#$%.%#++.+++..+.",
"@.+@%+.++++++%$%%%$$%$$.#%***-*',!,~~_~_}:::[18ekzFskeclnEDqonkkkkkkijiiiiiihec086421:__{)'>)',,=@@#%=$**%$%%%$$%%%%%+++@++@@@@.",
"++.@@@+++++++#%#+#%$%$%%*%$**,**,!,=)]]]]^[:|15bkyEsidflkDCqnihfffhhecdccbcdba976442//_]]))='=$@@@@+@=%%$#@$$$@%%%#+++++++.+.@@.",
"+++.+++.+ +    +++ +++++ +++++@@.$$*);;!]~/:}15biyFskffikECojhbaaaaaaaaaaa0888552|:/]{{]](()==$@@@@+++@+@+++.+++++++++++++++++.@",
"@+@@@@++@+ +++++++@+++#$$+++@@$,';$)!!!^/:/:236biBFrkffinDBpkfccabbaaab0a0888756}}/]((((]((('>#@$%$$$$+%@#%%$%+ + ++++++++++.+..",
"..+.@@+ + @%@@.%%%$%$%%%**+@@@]~~~]]__:::}23258cnzFrjfejkDBqnkhghigfhffbba008777}:/[(((]]]]{))====*),,*****%=%@#@@%%%@++++++@..@",
"@@@@@+++ .##%@@%$$$%%%$%%'$@@=',~~]^/__:}}22448fmzGtjfeikECrqppnnooonmkkihda8775}11|/((]{(](>'=;**,,,-*%==%%%%%##%%%%$++@+@+@++.",
"@.@+++++ .%%%%$%%%%$%%%%%=%@=,,*]!]^__:1<124668dmyGrjfejkDDuuuuuuuuuutttsmid97762}1}/(({{]))>';!!,,,*,=%==%$%%$@%%%%$$#+++++++..",
"@@++++++ @.%..%%.%$%@.%$$*@@$***),!!^__<}<15468fkAFrlffjkDEFFEEDEFGFFEFEECuib876543}/]{{{{())*~~!)*,'***%%%$%$$%$%$$%%#+++@+++@@",
".@++@ +++#%.@@%.%$%%$%@%$%.@#%$*)',~~:::1324670emzFsjedfitzzyzzzzzzAzzyxBEzkd0776422[_!{/]]{*)~!]!,,,*'=*%%$%$$%%%%$%%.+@++++.+@",
".@+ @++++.%%@%@@%%%%$%%%%$+@$=**~]!~:__:1124450fnxEricdcfiknpppppqppppqqsEzmf0874222<}~!]~])~~~!!,,,',**%=%$%%%%%.$.%%++.+++.+++",
"@+@@    @+@.@@@@%$.$%$%$%$@@$=',)!!^:::<:324670ekxErhdaadeiknnnnnoonnnoprFzoga77622112]!]^~]^~~]!,,,',**$%$$$%$%%$%..%@+++++++@.",
"@++  ++ + +.@@@@@@%%$$@@$$++&'','!^]::}11324670ciyGrhdbbbeikknkmnnnnnnnpsGznhb87544211]!^~~~_~!!!!),****%%%%%%%%%%##%@#+++++.+.+",
"@.+++++@++@++@+.@%%%%%@@%$$$>))))'~]__:11244770diAEricbbdinoppppppppppqqrFAnga875442}:^!__^~:^~!),,,****=$$$%$.%$%@%$%++++@...++",
"@.+@ @+++++++..@%%$$@@.%$=$&>))'))]_::_:1324670ekxDribbchkuwwvwvvvvwwvvvyEAkf0774443<:^~_:~^]~!!);,,;*==%%%%%$%.@%$%%%++++++.@@+",
"@.++++++++@++++@%$%%%.%%*=$$'))))~~/:__/}122670clzDqicdgmyFEFEEEEFDEEEDDEDvkc0747533<:^~_~^~~^~~!!!',=%%%%%%%$%%@@%%%%@+++++@@@@",
"+...+++ +.@@+@@.%%$%$%%***$$>'''>{{]::_:}224758dkyEsldbinFEwxxxwwxwwxwwwwtkfa875444133^^^__~_]]!~,!!,*=*-%*%$%=%$%%.%#@++++..@+@",
"@@@++++  @..@%.@$%%$%%**-'@@$==>(])~^__:1224558elzFqjddgjDBoonnknnnnonkkkhfa9757454443/^]::__~~~~]^!****=*%$#$%%$%$%%%+ +++@ +@+",
"@@@.+++++ .%#$.#%@$$#$*,*$+#$=>){)']/]]}2223469fjyGsiddhmECnkghhiiihhgeeca09857754632/^!/^^:~~~~]~''%**=%$$$+@@@$$@@@+  + ++++++",
"@.@+++++   ++++ + +++++++@@$$$>=>==)!;!::1:^359diyEskecgkDCoidcbcccccbba88887566442:^/^^~!;;**!*=$$$@#$$@+$$$+++@++@+++ + +++@..",
"@.++++++++++    ++ +++++++&==&==>)=;;;;;^//:|37bizDslefikECpifbcaaaaaaaa088755661:}^//^!^!!;=;=;$@@$@@+++$=$$@@++++@ ++++@+++.@.",
"@@@+++++++ @@+#%%%%$$*#@$='>&='=''=;;___^:}/488cizErkhbgmECoifcffacefcfccbb08875662|6421}_/:~~~=!~!*#@@+@$&=$$$#$%%+#++   ++@%@@",
"@@.@ +++++#@.++@%%$#%%.#$=>>>>=$')=!^[:}:/:1570ciyErlhehkDBpokkkikikkkkiiigfedb08744221}}}:/_~!!,,,,=@@$'%$$$$#@%%@$$#+++++++@.+",
"@@++++++ +.@@.@@@@$%$%%%#=''>'=']]~~__::<//2778djyEslgfinFDqpoppooomnnnnonoknkjfa8543}}<::___~!,,;*!,@$!,*%%@#@$%%%%%$@++++@+++@",
"@++++++ +++@%@..@.$$%%=%$$>')===,!^/^:::1::2778bizEriddikDFDBCCDDECCDDBECCDDDDznf07421}:<:__^~!,';**'@*,,=%*%%%$%%%%$@%+++++++@@",
"@@++@+ ++ ++$%@.@#.#%%%%%$$='==,'!~^/__:://1678biyFsidbcivAABBCCDCCDDDCBDCCCDDExib741}:::^^^~~~,,,'**@*,*%=%$%%%%@@@.@+++++++++@",
"%+@++++ ++@@%@@@#@.@%%$%%=*$$%*,!~~,]]/^:]/:478cizGrkfabfimnnnooppopopppopoqqtEAjc8211}::^~~~~!!,,**$@**=%%%%$$$%#@.%@+++++.@+@+",
"@@..+++ +++%@@@%%@@%%%$%%%=%$%%*!~~]!~~_:_]:458cizFskfbabfhjkiikkkikknknkkmnprFAjc862}::<^~~~~~,,,=$$@=*%%%=%%%.#..@%%++++.@+.++",
"@.@.+++ +++..@@%#$%$$@$%=%%****;!!!!]!~:_]/[367bjyEtmecbdeffhghfhgigiigjkiknprFAlc741}:::_^~^^~!,,%$$@$%%=%%%$%%@@+.$%@+++@@@@++",
"@@@.++  @+@+@@@@%@%$.%%%%$%**;',,!;!~~~~_]/}127bjzFtokigiiikkkkkjkkkkmknnkmnqsGBne823<:::_]^^~]~,*=$$@%**%%%$%$$%%%@%%#+ +++@+.+",
"@@@..++ +++@@++@%.@@%%%%%%%%=*;,*=,~,~~^_]!:227blAGuqpnnnnnnonoooppppppqqpppqtFBne722}}<:^~~]]~,,*'=$@=***%%$$%%#@@@.%@+ +++.+++",
"@..@++  +#@@+++@@@@%.%$$%$%%%**,;)!~!~~_]~!}}240izFCAAAxzyzyzzzAzyyzAzBAzzyAACEzkc74231</]^~!,!;****$.$%**$$$$.@@#@@@%#+ ++++.++",
"@@+++++ ++@@+@@@.@@.@@%%$$$*=***'=;!]~~^_]!}|248eqCEFEDDEDEFDEGEDFEGEEFEDDEEEECuga7231[:^~~!!!,;;***$@#%=$%$%$#%.@#@.%#+ +++++++",
"@.++ ++ +@+.@..#@@@.@.@.@$$*=**-***;)!~^:_!:}1370fimkmjliijkljkklknmknnonkmkmkhfb7631:^~]~))'),'***=#@$=-%%%%%@@@@@$%%#+  ++++++",
"...+@@+++ ...@@.@%.@@@@%$.$*=%=**==*'!~^:!!!/}1270bdfdddbbdfccfechgggggiggecddb07742[_^]~]''),''*=*=#+%**%%%%.%%%@%$%@++ ++++ ++",
"..++@@+++++++@.++++@@#%$$#$==#**'*=;,!~~~;;!!):11778a00899a09809a0aba0abbaa980876421:/~~~,){);====#+@@@$%%%$%%%%$$$%#+ +  ++++@+",
"+@+++++  ++ ++++ ++++##++$$$@@#=%#@$===$;;;;!!~~/:}26774666767667657777877753321::::~)~))'{{)$$#$@@@@#@++#+@+#++###%++@+  ++++++",
"@++++++ + @    +  ++@+$@@$=$$+@++#$$$%$*=;!!!!]^]//(||222211343336654666341321}:///]]!;;))()'$@@@@@##$#+++++++++++++   + +++++++",
"++++.++++++@+#%@+++++ +#$$&$$#$@%,',*,!~~___/^}:/(([([||||2|24764666464114424211::::_~]={{{)'$$@$)=***$#%%##@@%%$##++++   +++@++",
"++++.++++ @#@@.@++@+++++@$$$$$%$%*=,**,!~~~~~_/_:/([[[[[[|||1243444344242311}11}:}::_~!;))')'$$$******$%@%$@#%%$$%@.$@+  +..++@+",
"@.+@.+++++@...@@.@@++@@+@@@$=&$$$$=%*,;!~!!~^^_^^^/{((([[[[:231321122322}11}1}::[::_!]~!*)===&&%**===%$%%%$%%$%%#%%@%++++ ++..+.",
".@@++++++@@@..@@..+$@@@@+@@$$$==&$***',,!!'!~~~:^^^:]/([[[(]1}<}}}}<}}}1}1}1}::_]_~!!~!!)!)==#@$*%$=%%%=%%$%$.@@@#@@@#@  ++.+++.",
".@..++++++....@%$@+@@@@@@@@$&&>=$%=**=*;,**;!^^~^^:^:]](((]]1}}::::<1}}:}1:::::^^^!!!~~~!!,,,$@$$%$%$%%*%%%%..@@@@#..#++++++.+++",
"..++++++++@.@@@$@+@@+$+$$#+$$$=$%%%%%==*****~]~~^^~~^^:]/];^::<:_:::}}}<::_::^^]~!!)!~],~!;*,=#$%%%%%==%%$$%#%@##%@.@.+++++++.++",
"@.++++  ++.+.@%@..+@++$+@@@@@#$@%=%%%**$*%=*!~^]~~~^~^_::_!!/:_:::::::::::^_^~~]~!!,]!;!!!;**%@%%%%%%$%%%%%%%.@@@@+@#@++ +++.@++",
"@.+++++ ++.+..@@@@.++@@@@@@$%$$$%*%*$%%%%%=,!~!!~!!!!~::_]!!:^/^__:::_:::~^^^~~~!;!);!;;)!***=@%*%%.%%$%@.@@..@@.@@.+@+ +++++.+.",
".++.++++ +...@..@@@++@@@@.@%%$.%$*%%%$%$$%,,*,!!,,!~~!^/])!^__^^::::::^:^]^^~!~!!;,;!,*,,**'*$@%%$%%$$%$%$#%%%@%%.@@+++   @..+.@",
"@+..+.++++.+++...+.+@+++@@@$$$%$%%%%%$$%$=,,;*,,*,~]^^^_/!;]/^~:_::^:^^^~^_:^]!;);*',,,*;;,===@$$%$$==$$%@@..@.@@@@.@@+ +++++++.",
".@@.@@++++++++@+.+@.%.@@@@%@%%$.%%$%%$$%%****,**;;!~]^~~^~!^:^:^_:^^~]~^~_/^!~!!!;;;);;;****=@+@%%$%$$%$@@+@@@@@%@@@%@+++++++++.",
"+.@.@.+++++.+.@+%@@#.#@%%$%%%%%%%%=$=$%%****',;**;!!!~~^~~;!_:^__)!~^^~~~~!!,!!;===,,;%%%%**#++%*%$%$#$%%@@@@@@%@%@@@@@+ +++++@+",
"+@@..@ +@ @..@@@@%%.%$%%%*%$%%%%%%%%$#$=;=$$==**$,,,,~~^^!==]__^!!!^:_~]~!,;;'**=*,,,'=$$.$$+++%*%$$%%$%%@@#@@@@.@.@@%+++ +++++.",
"@..++++++ ++.@%.%%#%%$$%$*$%$%%$%%%%$=$$@$$==$=%%*;]~!!~~=;%,^^~~^!^_^]~),=**=$%*,,,;=$$$$@#+@+@**%%*%%#@@%$%%%@..@%.++++ +++.+.",
"@+++++     ++#.+++++.#.%@#@%#$@.#%%$$$$$$$$$@@@@$%;)!!==$%*$*%,;$;;;;;,*=%*%$$@@$%=$===$#++@@@.++@$*$%+@.@#$##.++++%+ + + +++@++",
"+++++++          + ++ +@+++++++++++@$#$$$#=$@@@+@@@@$$$$$$$$$==*=*=;=;;=$%$$$$.$@@@@$$$$@@@+@+@.+@+ +++++++@+@ ++ +  @   +++++++",
"+.+.++  +      + ++++++.+@##@%#+++@$$$$$$$=$$=$+$#+&$=$==$=!)!*=*),!=')!=$=%$'',=##$$=$=$+#+##++@$.##++@+.@@+++++++      +++++++",
"++++++ ++ +.++..%.@.@@@@$$$%$$$%++++@$@@@@@@$='==$=>==$!!,,]!)!,!^~,!~)!~=%$,!,,**=>$$+@@@@@%%%$%%%%%%.%%@@%%@@+.##+@+ +++++++++",
"+..++ +++ @@@#.+@@@..+@@@%%%#%=$@@+@+@@@++@@$===&$=>'=%*!)!!,!,!!!)!,!,;);@$*-;,-*$#$@@@+@+..%.$%%$%%@@@@@%%%@+++@.@@+ +++++++++",
".+.+++ +++++@..++@.@....@%@#@$%@.@@@%+@@@@@@$&=$$=$$=%%*,;,*'*;*;,**;,;,-,@%*****$.@.@@++@+..$$%$.%@@@@%.@@@.%.+++.@.#+++++.+++@",
".+++ ++ +#@...@.++..@.+@%%@%$%%@.%@..%+@$@@@$$$@$$$=$%=*;**%,********=;***@=**%=%...%..%++.@.@..%%.##.@.@@@@..+++.@@@.++++++..@.",
"+++++++ +...@@...@..@+@.@%%%$%@...$..%@@%%%$$&$@#$=*$$****%*;;**;*%*****=%@$%%%%$%.$%$%%..@.@@@@@@@.@+@%.@.%+++@@@@.@@++@+++++.@",
"++.++++ ++@...@@@@..++.@@$@%$.@%@.@.%%+@=*%.@$$%$%$=%%***%=*;==*=%$%*;*$$%@@**$$$%%%***%%@.@.@@+@@@+@.@@$@@.++.@@@.@%++++ +++++.",
"..+.++  ++@@..@+.@@++++.+@#%%@@@%@@$%@++%$%$%$%%=%%%%**=%$%***==%$%%**$$@#@@$%$%$%%%$*%%$@.@@@++++@#%%@%%.....@@%%%@++++++++++@.",
"++++@++ + ..+.+++..+++++..@@@.@%%$%%$%++%%$%$$%%-%%%=*==%%%%%=*%%$%%==$$%$+#%%%$$.$%%$.@@.@@.+@++..%%%%@.@.@@+@@%.....++ ++++++@",
"+++  ++  +.+@++.....+++++@+..@+@#%%@$$++%@@@%..$%%%%%=%%%%%%%$$$$$%%$$%%%%+#%$%$%$%$$$.@@@@@@@..+%%%#%%$#@.@@.@@@@@.@.++++@++...",
"+++ +++ ++.+.++.@.+@+++++@+++@@%$%+%@$++%.@@@%%.$$%%==%%%%$%=%@$@%%%$.%*%%+@%%@$%$.$%.%@@.@@@@@@@.@%%%#%@.+@+++.@@@.@%+++ ++++.+",
"..+++++ ++...+@@.@@++..#.@+..@.%.@+.%%++%%#%%.%%@%%$%%.$$%$$$$@%%%%%.%$==% .$$$.%@@$%@%@@@%..@@@..+@#@%%@.@.+++.+@..@#++ +++++..",
"+++ + + + ++++...#@#@@@@@@..+++.+++%%%++.$%%%.@@%%%%%@@@#%%%%%%$%$%%%$$%%$@@%%.%@.@%@#%%@.@#..%%%%@+@@@.@@@@@..+@@.++@+ +++++.@.",
"+   ++     .++.@%%@%@%##@%.#++++++@%%@++#%**%@@.$$$%@$$%#%%%*=%%$@#$%$$$%++ #%..%.@@%%@.@@+@+@.%%%#++.#%%.%#%%%%#$#+#.  +++.++..",
"++   +   +  +++.@++++...+#++.++ ++++++  ++@@@+@.#+++@.+@+++#%#@@@ ++#@#+ +++++.#@+@@@++.+++++++@+++++++++++++..#@+++     +++++.+",
".++@          @   ++++@ +++    + +++++++++++++++@ +++@+++++++++@+++@+++++++++++++++++++++ @+    ++++++++    +  +++++     +++++++",
".+.+ @     +    .++++    @    ++@..+.+++++@%@+ ++ +++   ++++++++@@%%.++++@++@@@%#@+#@@@%%++ +++ ++.@+.+      +   ++     +  +  ++",
"+.@++   + +.+++@..#%@%@++    ++@@%#.@@@@.%$.%.+#@@..@+@+++++%$$%@%%%@$$.#@%@###%%@@%%%%%%$+++#@%@%%%###+  ++..++++.+@+++++++++++",
"++++    ++@+@.+.@.@#+.++@+  @%@.%@@@@.@..@%.@.#.@#+@..@@+++%%%@%@@@@@.@%%@@.+++%@@+@.@@@..@++.@@...@@%++. +....+++.+.@+   + ++++",
"++++    ++@+++++.......@#++ .....@@@%@@++.@..@@@.@...@..+++%@%#@@%%@@.@$%@.@++.@@.@..@.@@.@++#..%@@+@@++++@.+.++.++.+.+ + ++++++",
"+++++    +.+++..+..+..@+.+++@.+@.+.@.+@.+.@@.++@@@...@@.@++%@@@@@%@@@@@%@..@@@.@%..%.@..+.+ +@.@%.@@+..@.+...++.++@...+    +++++",
"+++.+   @+.++++++@+++.++++++.++.@@.+@@+.+++.++@@@.@.@+@.@@+%@@@.@@@@@@%@#...+@+@@%.#....++++@%@.@.@..@@@.@.@++.++.@@.++++  ++++."};
