/* XPM */
static char * N_xpm[] = {
"20 14 278 2",
"  	c #9E735F",
". 	c #996850",
"+ 	c #8E7A6C",
"@ 	c #8C7C74",
"# 	c #A88977",
"$ 	c #A48577",
"% 	c #AA8C7D",
"& 	c #9D8777",
"* 	c #8C7F75",
"= 	c #A98E7C",
"- 	c #B18B78",
"; 	c #AA8F7D",
"> 	c #A88B7F",
", 	c #A09387",
"' 	c #9B8679",
") 	c #8E7C72",
"! 	c #B19A88",
"~ 	c #977F73",
"{ 	c #8D7164",
"] 	c #836C5F",
"^ 	c #9F735D",
"/ 	c #AF816B",
"( 	c #9B7F6C",
"_ 	c #A28777",
": 	c #AA8D79",
"< 	c #AB988B",
"[ 	c #AC8B7B",
"} 	c #A69486",
"| 	c #928C84",
"1 	c #B09D8F",
"2 	c #B38670",
"3 	c #AB8D7C",
"4 	c #BA8B78",
"5 	c #A4958A",
"6 	c #988A7E",
"7 	c #908174",
"8 	c #9B877A",
"9 	c #997666",
"0 	c #927263",
"a 	c #8A7063",
"b 	c #965F48",
"c 	c #B28C77",
"d 	c #AC7662",
"e 	c #B37C65",
"f 	c #A67E6A",
"g 	c #8D8A85",
"h 	c #9F958D",
"i 	c #8A6459",
"j 	c #8F695D",
"k 	c #87695F",
"l 	c #A58D7E",
"m 	c #A1877A",
"n 	c #A1796A",
"o 	c #966658",
"p 	c #876259",
"q 	c #928174",
"r 	c #83736B",
"s 	c #AA8877",
"t 	c #8F604E",
"u 	c #8E7568",
"v 	c #856D62",
"w 	c #7F726C",
"x 	c #837368",
"y 	c #8F8074",
"z 	c #B78E7D",
"A 	c #BE846F",
"B 	c #BC836F",
"C 	c #BE9E8B",
"D 	c #AD8577",
"E 	c #AB8D79",
"F 	c #C28D73",
"G 	c #BD866A",
"H 	c #B1836A",
"I 	c #A79687",
"J 	c #AC9A89",
"K 	c #AC8679",
"L 	c #A27666",
"M 	c #9D7263",
"N 	c #836F61",
"O 	c #7B6D65",
"P 	c #836D60",
"Q 	c #9E8574",
"R 	c #917264",
"S 	c #A68B7F",
"T 	c #A5897C",
"U 	c #8D7468",
"V 	c #9F7D6F",
"W 	c #BD9380",
"X 	c #B48876",
"Y 	c #AE8B79",
"Z 	c #AD8A76",
"` 	c #AF8D7A",
" .	c #B88B77",
"..	c #B29281",
"+.	c #B39584",
"@.	c #A88774",
"#.	c #9A7B6B",
"$.	c #AD8D7B",
"%.	c #B28872",
"&.	c #A07D6C",
"*.	c #7F6B5D",
"=.	c #A88775",
"-.	c #A58171",
";.	c #A98573",
">.	c #AB9282",
",.	c #958478",
"'.	c #A6978B",
").	c #AA7F6A",
"!.	c #A07B6B",
"~.	c #B28E7D",
"{.	c #B29E8F",
"].	c #B3A293",
"^.	c #AF7C68",
"/.	c #AA816F",
"(.	c #996C5B",
"_.	c #A18170",
":.	c #907B6B",
"<.	c #B39581",
"[.	c #B38671",
"}.	c #A27862",
"|.	c #9F644B",
"1.	c #AB7B69",
"2.	c #A88572",
"3.	c #A67F6D",
"4.	c #8F7061",
"5.	c #987263",
"6.	c #906B5E",
"7.	c #A0887A",
"8.	c #786058",
"9.	c #B08776",
"0.	c #A9654F",
"a.	c #A56048",
"b.	c #AE816C",
"c.	c #AC7462",
"d.	c #B58773",
"e.	c #AF7563",
"f.	c #B08E7B",
"g.	c #985A44",
"h.	c #90705E",
"i.	c #8D7464",
"j.	c #7E6C60",
"k.	c #A27F6F",
"l.	c #955B49",
"m.	c #976150",
"n.	c #A87564",
"o.	c #AD8F7D",
"p.	c #A5806F",
"q.	c #A37967",
"r.	c #946D5C",
"s.	c #A68A78",
"t.	c #A98C7B",
"u.	c #9D806C",
"v.	c #A67C6B",
"w.	c #9E7565",
"x.	c #A2796B",
"y.	c #A58F80",
"z.	c #AD8972",
"A.	c #9D715C",
"B.	c #A17660",
"C.	c #7D6251",
"D.	c #8E6853",
"E.	c #9E7F70",
"F.	c #A88675",
"G.	c #AE9080",
"H.	c #AD8E7F",
"I.	c #BC9F8D",
"J.	c #AF826B",
"K.	c #AE8D78",
"L.	c #997868",
"M.	c #9D7C6B",
"N.	c #976C5D",
"O.	c #9E7F6F",
"P.	c #9C7E6D",
"Q.	c #A47D69",
"R.	c #9D7562",
"S.	c #B5846B",
"T.	c #A67B65",
"U.	c #9E6C59",
"V.	c #8E6B57",
"W.	c #996B53",
"X.	c #B19887",
"Y.	c #B19888",
"Z.	c #B39B8A",
"`.	c #B19688",
" +	c #B59282",
".+	c #BDA18F",
"++	c #BA8E77",
"@+	c #BB9A87",
"#+	c #BA8C7A",
"$+	c #B49789",
"%+	c #BB9D8E",
"&+	c #B69E8F",
"*+	c #AB9686",
"=+	c #AF8875",
"-+	c #AA816D",
";+	c #AD7C65",
">+	c #A7846D",
",+	c #9D6C5B",
"'+	c #56555A",
")+	c #A88677",
"!+	c #9D5F51",
"~+	c #9F6151",
"{+	c #AA7A69",
"]+	c #655E61",
"^+	c #99867B",
"/+	c #AE6E5A",
"(+	c #B26C54",
"_+	c #B46F58",
":+	c #B18D7D",
"<+	c #947466",
"[+	c #A97E6F",
"}+	c #AA6752",
"|+	c #AF674B",
"1+	c #AE9082",
"2+	c #4F4B52",
"3+	c #8F776C",
"4+	c #905B4E",
"5+	c #87564A",
"6+	c #896D61",
"7+	c #AA9586",
"8+	c #88776C",
"9+	c #A89C8F",
"0+	c #B1846D",
"a+	c #AA7D6A",
"b+	c #B59383",
"c+	c #B5A192",
"d+	c #8F877F",
"e+	c #988C82",
"f+	c #8A7A70",
"g+	c #A28375",
"h+	c #BAA495",
"i+	c #A39085",
"j+	c #B59C8A",
"k+	c #BD917B",
"l+	c #AC816E",
"m+	c #B6856D",
"n+	c #8A7D74",
"o+	c #948476",
"p+	c #7F695D",
"q+	c #8B7365",
"r+	c #8C786C",
"s+	c #9D8E83",
"t+	c #B18774",
"u+	c #A0715D",
"v+	c #A17866",
"w+	c #A18F81",
"x+	c #887C72",
"y+	c #958E84",
"z+	c #827A74",
"A+	c #AB9587",
"B+	c #AD8F81",
"C+	c #9A8076",
"D+	c #B29C8F",
"E+	c #AA8E80",
"F+	c #AB8D7D",
"G+	c #AE836E",
"H+	c #9B887C",
"I+	c #8F7B70",
"J+	c #7B7570",
"K+	c #897064",
"L+	c #8B7366",
"M+	c #947B6E",
"N+	c #9F8172",
"O+	c #A26750",
"P+	c #AA7056",
"Q+	c #A77056",
"R+	c #A18A79",
"S+	c #8E8173",
"T+	c #6F6662",
"U+	c #99867A",
"V+	c #926F63",
"W+	c #967567",
"X+	c #997568",
"Y+	c #94887F",
"Z+	c #9A938C",
"`+	c #986253",
" @	c #955949",
".@	c #915749",
"  . + @ # $ % & * = - ; > , ' ) ! ~ { ] ",
"^ / ( _ : < [ } | 1 2 3 4 5 6 7 8 9 0 a ",
"b c d e f g h i j k l m n o p q r s t u ",
"v w x y z A B C D E F G H I J K L M N O ",
"P Q R S T U V W X Y Z `  ...+.@.#.$.%.&.",
"*.=.-.;.>.,.'.).!.~.{.].^./.(._.:.<.[.}.",
"|.1.2.3.4.5.6.7.8.9.0.a.b.c.d.e.f.g.h.i.",
"j.k.l.m.n.o.p.q.r.s.t.u.v.w.x.y.) z.A.B.",
"C.D.# E.F.G.H.I.J.K.L.M.N.O.P.Q.R.S.T.U.",
"V.W.X.Y.Z.`. +.+++@+#+$+%+&+*+=+-+;+>+,+",
"'+)+!+~+{+]+^+/+(+_+:+<+[+}+|+1+2+3+4+5+",
"6+7+8+9+0+a+b+c+d+e+f+g+h+i+j+k+l+m+n+o+",
"p+q+r+s+t+u+v+w+x+y+z+A+B+C+D+E+F+G+H+I+",
"J+K+L+M+N+O+P+Q+R+S+T+U+V+W+X+Y+Z+`+ @.@"};
