/* XPM */
static char * North_xpm[] = {
"128 128 72 1",
" 	c #0D0E0C",
".	c #0E0E0E",
"+	c #0D0F0F",
"@	c #0E0F0D",
"#	c #0C100D",
"$	c #10100D",
"%	c #0E110D",
"&	c #0E110E",
"*	c #0E1110",
"=	c #0F110E",
"-	c #0E120E",
";	c #10120C",
">	c #0F1210",
",	c #0F1311",
"'	c #10130E",
")	c #101410",
"!	c #101510",
"~	c #101611",
"{	c #111710",
"]	c #111712",
"^	c #121810",
"/	c #121812",
"(	c #121913",
"_	c #121A10",
":	c #141B14",
"<	c #131C11",
"[	c #151D15",
"}	c #151E15",
"|	c #151F12",
"1	c #151F15",
"2	c #162116",
"3	c #172215",
"4	c #192618",
"5	c #182716",
"6	c #192917",
"7	c #1A2918",
"8	c #1B2C1A",
"9	c #1C2D19",
"0	c #1D301B",
"a	c #1E331B",
"b	c #20361D",
"c	c #22381E",
"d	c #213A1F",
"e	c #223B1D",
"f	c #233D20",
"g	c #254021",
"h	c #264221",
"i	c #274623",
"j	c #274722",
"k	c #284924",
"l	c #2A4C26",
"m	c #2D5028",
"n	c #2F5629",
"o	c #33562E",
"p	c #355B30",
"q	c #345F2F",
"r	c #386732",
"s	c #3C6E35",
"t	c #3E7337",
"u	c #427939",
"v	c #447F3B",
"w	c #498541",
"x	c #4E8844",
"y	c #4C8F43",
"z	c #519948",
"A	c #5EA651",
"B	c #5BA94F",
"C	c #62AE55",
"D	c #5FB052",
"E	c #61B454",
"F	c #60B754",
"G	c #63BC56",
"++@@@+.+ .++++#+++@.++@@@# +++++@#+++++++# @++@#@@#+&+&#@+&#@@@@@#@+@@@+@+@ ##++@+@+++@@@@++@@ .@+@++++..+.++..@+##+#++ ++++++++",
"++++@@++ +.++@@@++@@+@@@.@@#+++@#++@@@#+++ #++++@@+#&&+##++###@@@++##+####@@&+++++++#+++@@@@@@@+@+@@@+++@@.@@+#@@++++++ @+++++++",
"++@+@+.+ .+++@.++.+@@#@@@@+@+++++#+@@+#@++ +*+@++#++&&++#@#+##@ @@@##++++& @&&++@+++@+@@++#+++#+++@@@+++++@ @++@@++++++ .+@@++++",
"@++@@@   .++++++.+@@+@@@+++++**+@+##++#++@@#+++++*+++&+++###++@@@#@@+&&&&*  **+@@@+++##+++@+++@+++@@+@@++++++++++++++++..@@+++++",
"++++@..+  +++++++. .@.+++@@++++@#+@+@++#+@@ @+++**+@@@@+@@++@+@@#+&*&+&&&+  @*+#@+@+++@+.@+@+##@@@@+++#+@+++++++++++++@.@@@.++++",
"++++@+@ @  .@+@@.  .  ++   ++@+@#+#+*@@@  @   @@+.+@@  @@#@@ @+&+&@ #@@.@@@@  @+@##+@+@ ++##@@@@@@+++@ @+++#@.@@@+++&+@ @@+@@+++",
".++.+@@@  . . @ .                     @ # @ @                      @     @ @@@   #        #                        +. @@ ..+++++",
"#++++.  . .@++++++@@+#++ @ .+++@@@@@ .@+#++@@#@@@@#@#@@#@#@+&@ @@@@#@+&+@+@+&&#+@+@@@@@@#@#@@@+@#+@ @ @@++++++@+@+++#+   +@.++++",
"+.+++ ..  +++++@+++++##++  +##+++++++@@+@++@+@#+@@@@@+@+&#@@&&@# @+&&&&&&@&+&@##@+++@@###@##@@+@@+#  @+++++@+@@+++++##   .@+++++",
"+++#@. . .++++++++#++++++ @@+#+#@++@#+@@+@++#@@++@+@@@#@@#@+&&& @@&&&&*&&&&&@+#@@#@#+@++##@#+++++++@.@#@+++@@@@@@@@++++  @+@++++",
"+++@   + ++.++++++#+++++# +++++++###++@@+@+&+#+@@@+@#@#@@#&&++&# #&&@+&&&&&&+@@@#&@@++#+++&&+######+@@#@++++@@  @@@@+++ .#@@++++",
"+++@ ++...+@+++++#++++@++ ++#+++#+#+++@@#+*&+@#@++@@@@###@#@@#&@ &@+@@&&&>&*&&#+&@@@@+#+#@++#++###+@ +#++.+++@@+@++++++ @+#+++++",
"++@@     .+@++++@+#++++@+@@+@@+&+++@#++@@#&@@#@+@@@#@#@+#@&&&&&@ #@#@&&>&@*>>>&>&@@#@+&+#@#@++@##+++ @@#+++@#++@+++++++   ++@@++",
"+#@@ @   .++++++@+++++#++@@+###&+&+++@@@@+@@#@&@+@@@&>&&&@&&@@@@@###@&>>&&&&&+&&&@#+#&+##+#+###++++# .@+#++@@@+++++#++#  .++@+++",
"+++@+.   @@+@+@@+@++@@@## @@+#+++&++&+#@@++@&@@&&@&>>&>&&&&+@@&  @#@@&>>>>@&&@&+@+@#@&+#@#@###@#+#@+ @@++++@@+++#+#+#+@   .+@@++",
"+++#@..  .@+@+@@++++@+++@  @@++&#++@+@*+@#@@&@&&&&>>>>>&&&+&&#@  #@&@&&>>>&&&&&@+@@&@##@@@#+++##+@++ .@+.+##++@++++++#+   +++++#",
"++++@++  .@+@@@@+++@@@ ++  @@@+#++##++@#+@#&&@>,>&>>>,>&&@@#@@@@@&&>&&&@>>&&&&&>&&&>&&##@@#@##+#+##+ @++@@#++++++++++++ @+.+#+++",
"+++++@++ +.@@++@@+@@@@@++@ @#+##++&+@+#+@#@&&&>>>>>>>>&>&#@@&>,@@&&&&&@&&&&>,>>>&>>>>&+#@@@@#+###+#@ #+#++##++++++++@## ....++++",
"++#+++.+ @++++++++++@@@++  @+++#&+&++&&@#@#@&&>&&>,>&&>>&&&>,&>& >>>&&&&&@>,>>&&>>>>>&&+#@@++#+##+++ +++++#+@@@@++#++## @+@.++++",
"++++@+@. @++#+ +#+#++@@++@ &**++&*>&*&&#@+@@&&@,>,,>>>&>>&>>,,>& ,>&&>>>@&>>>>>>>,,>&@@#@@@#@+@@#++@ #@#@#+@@@++#@++##+ @.@+++++",
"++++.++. .+++@@#@+++@++#+@ &***&>*&&&#@&&&@&&&>>,,,,>&&>>>,>>,>#@>,>>,,,>>>>,,,>,&&&&###@%%@@++@++&@@@.##++@++++++++++@ @@@+++++",
"++++@++@  .++@+++&+@ +@++@ ++**&>+&#@@@@&&+>>>,)),,>>>>>>,>>>,@@#@>,,)),,,>,>,>,&&&%'&%#%%%@@@@&&&#@@ @@++@###+#++++++@.@@@+++++",
"++++++++        @@   @@@     @#@#@ @@#@#@#&&@@@@&&&>&&#&,,>&>@###@#@>,>,,,&@&&>>&&%!'!-&%@@ @ @+@@ @@    @@+@@+@+++++   @@++++++",
"+++@+#+       @@@    @     @@@#@#@@@@@@   @#@#@#@@&>>&&## &@ @#&&&@@@@@@#@@@@@####@%''%#%%     @ @+@@@@++@  @ @@@        .@+++++",
"++++..@    .+++++@#@@#+++@@@#++&&*&@@@@@&&@@@#>,,,,,>,>>>,,,>#&)!)>&&&>>,,,,>&#&&%%-%-&-%%%@&&@ @&&&#+@#@###@++@@#+++   ++@+++++",
"+++@+.@   ++++++#@+#&++@+@@@@&++&&&&&@&&@@&#@&,>,,),,&>,,,,),,,>,,,,,)),->>,,---''%'%''%--; @&@@@&+++#@##+@#+++++#+@#+  ++.@++++",
"++++.+.  @++@@@@++++++#@@###++@@&&&&&&&@@&>@@>>&>>>>,>>>>>->>>,,,,,,))))>>,))-!!!!'%'''%%'''%@@@@&@#+@###@@@#+#+++@@@#@ @@@@++++",
"+++@...  ++++++++###++###++@#+&&&&&&&@@&>&&@#@&&&&&&-,>-&&&&>>))),),,),),,),!^{~!'')'%#@@-'-%@#@&@#+@+#@@&@####++@@+#++ .@++++++",
"#++@@@+  +#++++###++++@+&&+@+@&&&>&&&@@#&&>##@>&>,->,))-&&&>>-,!)!)!),)))),)-){!!&%))-#@%%%@&@#@@&+&&@@#@++##@#+@@++#++  +..++++",
"++++@@+  @+@@+#+#++@@+##++@@@#&&&>&&&@@@>,>@@>>>,>-,,,,>>-)->>>,))!))!!!!)!!)>%--&&'!&@@&&&&&&@@@&&&+&#@#@@+++#++@+++@.  @@+++++",
"++++@@@+..#++##+#++++++#+@@@#@@&@&&&&&&&>>,@>,,),>,)))))),)))),)!))~~~~)~!)!!),)),,>>>>>>&&&&&&@@>&+++@#@@@+@@@@@@@+#+   +++++++",
"+@@+@@@  .++@#++#++++@##+@@#@@@####@@@&>>&&&&,>,,-,!~!!!!)!!!))!!!~]]]~~~!))~)!!)--)),>,,>>&&&@ &+@+@+###+#@ @+@@+++++@  @++++++",
"++@@@@.  ++++@@@@+#+##++#@@#@@@##@%'&&&>>>>%#>,),))!~~~!!!~!!~)!!~!/]/~)]~!!!!!!!))),>&>>>>,>># @>&@@#@@+++@@#@@+@@@@+@ +@+++#++",
"#@@+@+.@ ++++@+@@@@#@##++&&&%@#@@%'''&&,>>>%@>,)!!!~]!~~!~]]]!)!~](((/]]~~~!~!)!!!),-)>-,,,),&#@&>&&&@##@+#@@@@+++++@++ .+@@@+++",
"++++#++@ @++++@#@@@+@+@*&&@%%#%#%''''&&>>,,&&!))~~]]]~]~~]]]~~]/((((/(/~~]/]~!!]/]!,,!),,,,,&#@ >>&&*&@++#@@+@+++#+++++ +++@@+++",
"++++++@+ .++@+#+##+##+#@+&@@%%%#;'%%'%>,),,&>)!~~](~]~]!]](/]/(]/(((]///~~((//](//)!)!),,>>>&#@@&&&>>&&&+@@@@+@@+#@@+#+ .+++#@++",
"+*+++@+  ++++++++#@#+#@&@@&&%@%%''%@&))))))&&~)]~~~]//~~]]]((((((((:(([(~/(((:(/(]~!),,,>>&>&##@>>>>>>&##@+@ #@+++#++++ +++@+@++",
"+++++@.. +++++++++#&+@+&&&##@@#%'%%&,)))!~,'&)]~~!]/^^^_((/]/((/((/(:[[:([[([<<<//]~~))),,>>>@##&,>>&&+&@&@#@ @+##+@+++  @@+++++",
"+++++.@.  ++++@@@+#++++@@&#@@#&#%%%>>)!))>---%~~/^(]<<1<_/[((:::(::~/[[[[[:(:<||_]~!!))),,,,>@@##,>&&&+@&+#@@++++#++++   @@+++++",
"++@++..+   @@@   @@@+&# @#@&@&&&@@&&&>,,&--%-))~/(^<<|<<_!~]~(/]((!~]/]]~(~]]<<<<!))),%,,>,&@#@##@&@#@@@#@+@+#@#+@+@+.@@ +#@++@+",
"++@@@+++               @@##@@@###@%&->%%%))!)!!{]{^||<|3<_~~/]/{]~~~{{({{]<|<<11|<{!'--%&&&%%@&@#@@@#@@@@      @@@@     .##+++++",
"+++.+ +@   ++@@@+@#+@@@@#@#%%&%-',))))~~]~)!~~(/(^_|||||31<]]/(:[:]{{(}}::_|3|3|1<^~(]~]!)>&>>>@>>&&@@@@@##+@@+@++.++@  @. @@+++",
"+++@++    @++@@+&*>>#&&#@@%-%-'-'-%))~]]/(]/([13485694333|32111[}1}:(}23334756953_((](/]~!>>,,&&>>&&&&&@#+@&####@+@+#+  .#@@++++",
"+++@.@ + .+++#++#+*&@&#@###''''''!!))~//(//(}270cdbdbba09334311}}2}[12379abdbbb065__//]]))-->>>&>>&&&@&&&&@+#+##++@@@@+ .@@.#+++",
"+++++++ +@+++###@####@# @#%%''''!)!)))!~~/::18brruuvuusba974422111}1247aqutsustnb93:(]/~~)-->,>>>>>>&&&>>&&+#@+@@@++@++ @@++++++",
"+++++#+@ @+++##++@+@@@@@%---'''')!'-,)~]]/[}3aqGEDBBDDEzbb9443221112340cDDABBDEDga1_(/]]~!),>--,>>&&&&@&&@@@#@@@@+#@+++@@+++++++",
"*+++++@+ @+##+##+@@@@@@@%--%-'!-')!-))~/([:}7cuGvlhijjyDvf074321112334adEwijijnGma2:(((]~!!!,),,>>&&&>&@###@#@@@@@+#+#+.++++++++",
"*+++++@  ++++#+@@@@##+@  #@#-!!-&{!-~~]/([1}7buGrkgefghyCrg07433333447bfCthhhhjFob4}:(//~~~!-)),>>>&&@##@&&#++@+@@+@+++.@+++++++",
"++*+.+@.+.@+.@#@@#+@#@&#@  @%-!%&'!)~~(([[117dtEqhb0aagiBBhf8777443347ddBsgeafjDob31^(((~~~!!),,,,&&@@####@####+#+@+### @@#+++++",
"+++++#@+@@+@@##@++###@@@@@###@%'>--)~~]([}128ftEmf0900dhrDyhc087743337dfBsdbaclEpa31}:(]]]]~!,-&,>#####@##&&@#@@++@@+#+ @@.+++++",
"++*+++++@+@@+++@#+&&###@ #@@&&&%>))))]~([}137dtEkeb800afiyFrhb09743337bfDuba0afAob422[(/]]]~)-!)!'%%%%@@@###@@###+@+++# @@#+@+++",
"+++++@+++.++#+#++####@#+@@&&&&>-,)!~]//:[}248fsFqfa0900aglBEmg06644446bfBsca0aeCpb431}[]//~!{{)!''%%%%&@+###++#++#++++#   .#++++",
"*+++++#+++#+#+@+#@+@@#@+@@&&>&>>-))]]/][}1338ftFoga99baabhqEzjf0677888cdAteb0bgAmc733}[(/~!-!!!!%-''--##+@##@@#+#+++##+ @++@++++",
"+++++@+++@+++@#+@@ @@#@&@@&@>>,,))!~((:}[}240ftDlfb099aabfiyFtjd077888efDtfc0ckCkb432}((/~->%)!!'-%&'##&&&##@@+&+###+#+ @@@+++++",
"+++++@++@.#+#@++@@@@#@+*#@>>>>,)!~/](:[}:}270dsDif09abfecdhlABlha98799fhDrfd0chAlb431[((//)>'%-'%##@##&>&&&+@+#@&@+@#+# @@++++++",
"+@++++++@ ++++++#+@@@+&>@#>>,,),!~~]/((^[1440crEkgbbegggffgjrEyjf09800fgDsffadiCmb431[:((/)~~!!'%@-@@#@&&&&@+@+#*#@+@+@@+++@++++",
"+++++#@+@ +++++@@@@++&@@#@@@,,))~~]~/_<||}470ftBkgabgrzmgechkuGvkf0960fgEtdfbclCob71}[[:(~)!{{{!'-;&##@@&#&++#+&*@@+++ @@+@+#+#+",
"*++++@ @ .        @@    @@@@@@@&%)!!!^||3|336dsBkgaagvGzjheehjzDnga990ehEteeabhAob3<_((~]!--~{~!)%-%@#@@@@#@@@+.@ @@@   @++++#++",
"++++++.+@@   @ @@@#+&+&@&@&>,,))!!)/~^||||3|6bqAoc00gyGGvjgchinByhd090egFvecabkDob4}}:/]]!-!{{!!!%%%%@@@#@@@    @+#+@  @@+++++++",
"+++++@@+@ @#++@#@+@@@&&&&&&&>,,))~]~^_1<|3338crBlg0bhyGFErkghhhuDsjfachiFvgdbeoDpb43}}[(/]~-)~%'%'-'-%@@&@@@ @@@@###++  +@++++++",
"++++++.+ +++#+@@##@#@&+&&@&&>>,)!!!]/|<13|336ftDrgafiyFyFBlhhghlzBmiffhkGygdagoDob731}:((]])--&@#%--%%@@@@@ +&@@@++###+  @@@++++",
"+++++@.+ ++++##+#+@@+@&&@&>&>,)!!!~_<<<<<|340frDpgcfiyFtyDulhfgkqFzlihhkFwhcbhmDlb731}[((~]!--!-&&&%%#%@@& @+&*@++##+++  @@#@+++",
"#++++@@+ +++#@.@+###@&>>&&&&>>)!)-)_<<^<1||49cqDkgdfjyFvnzBsigghluFthgikEygdbgmEod741}[:(]!~!)>---&&@@@#@&@@&&&++###@++  + @++#+",
"+++++++@ @+++@@@&++#@+&>>&&&&>>,),,)~~!_|1348drEogefkzEtmnBBokggilzBljilByhedglEod741}[((]~!))!)))>>>&@#@&@@#@@+##+@++#  ++@@+@+",
"++++@@+++@+++@@+&@#++#&&&&&&&&),-~]]!](^_1349dsBpgagkzGqmmsFzlihiinBylkkDyheehmBpd741_[:(]!]~~~~))),&&&>&& @+@@++#+@++# .++@++++",
"++++@+.. #++++++++#@+##+&&&&&&,)~]]]]](:12230fsBogbgkzGqlkmwFvkgghitDtmmBzidchqEpd743}:(/]!!!~]~),>,>>>>>>@@+####+++#++  @#.++++",
"++++#@#  @+@+@@#++#@#&&&&&&&&>,!~~]]]]:[}1340drBphdfkyGqkgklyFrlhghmyErnEyicbepFod873}^((~~!!~!)->>,>>,>>>#@##@+++@+@+@  +@@++@+",
"+++@ ++  +@@++@@+@@@#&&&&&>>>,>)!]~~~/]([}340erDsgcdiyEqkeeimEBmkhgimDEnEyjdcgmFld744}((((/]!!,-->),>&>>>&+@++#+++@+@+# @ +@++++",
"+++. ++  ..##@@+#@@@#+&&&+&>,,,,!)])]]~([}238drFshcchxBnidehluGymkfgjtFyEwifbgmFpd843}}(((]/~)->>&,,>>&&@@@@#@+##+++++@  .@@@+++",
"++++++ # ++++++++####@&&&&>,)),,)->~/]]/^[130frFpgcchxzmgbbeimzFsmhghlyFGwigcgmEpd742_}::((/]!)->,),>>&&&&#@@#++@+++++@   +@@@++",
"++@@ +++ ++#@+++#@+###+*&&>,,),,>--!~~]][1136drFpgcehxBjgbabgjmDEnkhginEFyheehmFod741}1[[(((/!--,)!)),&&&&@@+++##@++##+   ++@@++",
"++@@..   @+@+++##@#+#@#&&>,,>>,>>>,!/~!/}}337crFqhccixAjhbcbbeivFyjhhhjuFyifbgpGpd7331}:((((]!!)!)!,,&&&&+@ #+##+@+++++ .+++.+++",
"+@@#++ +  +++++@@@@@#++&&>>>>>@&>,-,))/(:1247crFqhefixBjgaaa0agkAGskeehksnhbbfpFqf7431[:(((]]]{)!)!,&#&>&#  #+++@+@+++@ @+@+++++",
"@++@+@..@  ++@+ @ @@+#@@##@&&@#@>>>>-!~([}}27brEqhbbjwBkg09969ahsFDkieehehgccgoFod73}(((]_~^{{!!-->##@@@@     @+@#+&+  @@++.+@++",
"+++++@ ..@   @@@@@@@ @  @#@@##@&%>---))~{<<<6arFrhaeiyBje909990ekzFylheabbbbbfoFpc41<({{]_<_<_!'%#@##@@@#@@     @@@@    @@@@@+@+",
"+++@++@#@  @++&***&+@+@+*@#@##>>>)~~]((([1140dsGsicfiyEifb00969bfmBDqifdabaabeoEpd8441:((]{<<^^{!%%%%%>&&&+@####+*+@#    #@@@+++",
"++++++++  +#++++++#+#&+&>+@@#&,),)~)/(/:[2440fsFshecjyDmhb009980ehqDBlhcbba0bfmFmb7431}[::]{__^{)%-!''-&@&@@@#@@@+#+#+   + @++++",
"+++++@@. @++@++##@##+&*&&>@#@&>))))!~/(:}2440ftGsidfiwDlg09898860fjvDwhfbbaabgoFoc84411[:___^^^{!--!''#&&@#####@#+++#++  @++++++",
"++++++@+ +#+##+#+#+@#&&+@&&@&&>,,,,!]]](12478drEshfgkyEnh08887986bhkBBmiecacbhoDpd743}}((<<_!{!-#&&!%'%@#&&###@#++++#++ +++@++++",
"#+++++++ +@+#+@@#+++#++&@&&#&&>>,,>!]]((}1448frEtkgimyDmh088677780ejnDymlgedeinEpc7431[}:^^)-'-@&&-!''-@&&&@@@@#+###++@#@+@@@#++",
"++++@.+# @+++++@#++@##+##@#@&&@&>>>!]~/(:1238fsFtnmmnyAmh0074444979fivFtmlihhjpCkc431}^((/~)-&#>&&%''-##&@#@#+#@++#+++# .+@+++++",
"+++@@@+@ ++++++@++##@#+&&&@@&&#&->>!~~//[[148dsGzvvuvBEnh07774434470hizFrnmlmmtEob4311[(//]!-&),>>---&#&&@#@&&&@#@@###+  @.+++++",
"++++.+@. @+++##+@##@#++&&&@#&@&>,,%,~]~(((}37cqGFGGFFFEmg06777347778chnEFFEEGEFFlb432[((/(]~->!>>!-,&&&&>@@&&@@@#+@#+@@  .@@++++",
"+++++@+# +++#++++#+#@++#+&&@@&,,,>>>-))//(}240drwvvvstlic7744444477800gqttrrsrsmf0421}((/~]~&-))),>>&&@&@#@&&@##@#+&+#+  @++++++",
"++@+@ ++ +++++#++##++++&&&@#@,,,>>&>>-)~/(/}14abcfhhggfb67474444344777afefffdfcb0711}:((/!!)&&)!,->&&&&&&+&&@#+###+&+#+  @@+++++",
"@@@@@#+@ +++++@+####++#@@&@@&,>>&&&----~//((}24778000887444344431344477900880777311[(((]~!!)&&),,,>&>&&&&&*&#++##@+&++#  @@.++++",
"+@.@@@@@ +++++###@++@@+#&&@@&@&>>&&>>>)~]/](:}23343377474433421}123444447777434231[((((]!!))&&,,,)>&>>&&&&&#@#+@+++++##  @@@++++",
"@+@+@@+#.@+++#++@@+#@@@&&&@@@&@>&&#>!--!~]/(:}1223444433332122}}1242333333433332}}(((/]!!!,,&@>,),>>&>>&&>&#+++&*++#+#+  +.@++++",
"@@.+@.@@+ ++++@@@@+@#@#&&&#@#>>>&&#-!!{)~^</[[}}12244233231221:}1112332222312211}(:[]))!)!-&&#>))>&&>&>&&&@@@#@&&+#+#+@  @@@++++",
"@@.++.. @ +@++@@ @####&&+#@@##>>&&@%{{_{^<<:(:([}}_}1_^}11}}:/([}((:}112}}}11[}1:[~{))!!~,&&&@@,),>&@#&&&@@#@++++#@++@  @@@@++++",
"@++@+++@.        @@@@@+@@@@@@@@@@%-!!{{{{^_!!~/{~]/^^^__^^/{^^~]~//^//^///(^<_<1_{!{!%>&%%-&&&&%@#@####@#+@ @@@@@@@     @@@++#++",
"+@+@@+.#    @@@@@@   @   @#&#@@%&'-)!{{{~^^]{~]]~(:([(/^^^]([((/]/(::://([/(<<<1|^^{~~!!'-->>,&@#>&&@#@@@ @@@##@+@+#+  @@@#@.+++",
"++@@  .#   ++++++@@@@@@@@&&&>&@&-'!'!!!!{^_^<<{!([[([}(]^~/[}[:[[[[:(((/(((/^<<<<~{^~{~!'&>,>>>>>>&>&####@#+++@@#+++#@ .@#++.+++",
"+@@+@+#  +++++++++++++@@@++&>&&#-''-@-%%!^_{__))((((:[/!)!(/[[:[(((:/((/]((^~_{{!!^^^!!!)'>,>>>&>>&&&@@#@#++&&#@++++++  @@+.++++",
"+++++@@#++++++@@#+####@@@&+&&&&&@'''#%-!!!{^^^{!~/(/(//!!~/(((:((/((((///((/](]!)!{^_!!!!'&&>&&&&&&&##@##+##++@@#+++++@   + ++++",
"#+++++@@ +#@++@@@@+.+#++&&@#&&&&@%&##-'!!'!^^^^{{{]/]~]!!]~((/(////~](/((///~!]---{~{&&-''%#&&&&&&&#@@#@#@@@+##+@##++#@ ..++.+++",
"+++++@+. @#+++@@@@@#####&+@+&@&&@&&@@%-!!!-!{{!=-)!/]]~!-)~/(/(/(]~~]//(/]/]~)!>>-%%)'&&-#@&&&&&&&&@@@++&&&+##++#+#+#++ @ ++@+++",
"+++++++. .+@++@#  +#+++#+&@@#&&&&&&###-!!!%-!{)-)~]]~]~)%~](]~//]]!)!]/]~]~~~))-,))!)'&&#&&&>&&&&@@&&@+++&+#@++#@+@++++  +.@++++",
"+++++#   @@++@+@#@+##++++@@@&@&&#@&@#@@-'--'{!%-~!!)~~~)%!]]]]]]~~)!!!!)!)))!),-))-&'%@#@&>>>&&&@&&&@+@+@@#+@+#@+@@@+@+    ++@+#",
"++++++++ .@@++++@+@+@#++@++&@#@&@&@@&#@%%&%--'>--))!~!!--!)!~~]~]))~!))),-)))))---&&%&#@&,>>>&&&&&&*&+@++##+@@@@@+##+++  +#@@+++",
"+++++@+   @@@+@+@@@+++###+&&@#@@&+&#@@#@@&&&--->--)))!~>-,,)!)--,-~~)>)!->-,-,,,>>-->&@>&>>>,&&&&@&&&*&++#@@@+++++++++# @@@@@+++",
"+++@#.   ++@@@++++###&+##@#+&+&&&&&#&&&&#&&>,,,>-))))))-&)),!,)-%%)!->!)>>>>>>,-,>>>>&&&&&&>@@&&&&&@&&@++#+@@+###++#+++ @@+@++++",
"++@@+.. .++++++++++++@@+++&@#&*&&&&#&@&&@&>,))),,))!)))&&)!))))))!!,-))),>>->>,,),>>>&&>&@&>&@&&&&&@>+#++#+@+#+#####@+@ +@++++++",
"++++@@@@#@+++@++#++++@@##+*@#&&&&&&&@@&&&>>,,))))),)!,,%&!))!!!))!)>>-),>>>,>-,))-&,>%'!'%!)%&&@&@&>&++@#+++###+++++++# @+++++++",
"++++@@@+  ++@++#+#.+##@#++&##&&*&&&@@@@&&>,,)>>,))))),&&@)!,)!)))),--),),,>>>,))>&>>&'!!!'))''%@&@&@@@##++#+#@#++++++@@ .@++++++",
"+++.+++++ .++++++++@++@+++##&&@*+@#@@+@+>,,>@@&>,,,,,&&&&@)),,>,)-&&,)>>>>,&,),,&&@>>>-%)!)%%-#&@@&@@@#@+@#+++++@.#+@@@ ++@+++++",
"+++@++++ @.               @@@@@#@@@@ @@@@@@@@@@@@@@&%&@%%@@#@@@%#@@@#@@##@#@@@#####@@@#;!'!-'@ @@%@# @@@@  @+@        @# @#@@+++",
"+++++++.    @ .   .       @@@#@@ @@   @@@ @ #&&#&&&>&&,,,>->-,@@--&&@#######@&&@@#@&@>>%!'-''-%@@#@@@ @         @@     @  +.++++",
"+++++++@+ ++++++++@.#.@+@+@#@####@@+&@@@@ @@&@@,,,,,>),>,)),,,,>,>,,,>&##@@>>>>@>>>,&>>'!%-&%-%@+#@#@@@@@@@@@@@++++++@ @+ #@++++",
"++++++#@##+++@+++++@++@+@+++##+#+&++&*&   @+@@@&&>,&,)),),)>>>>,,&&&&>>&@@>>>>&&>>>@&&%''@  @@@@##@###+@#++@+++++#++++@@..+++#++",
"+++@++.@@+++++@@+#++++@+#++#@##@@@++@+&@  @@&&@&&>&,),)),,,>&&>>&@&>@&&@@@&&&>&>&>>&&&@%'@   @ @#@##+##++##++@++++@++++  +@.#+++",
"++@+#@+++@++@++@@@@@+@@@@@@#@#@##@+#@#+&@ &@&&&&&&&>,,))>,>>>&@##@&&&&&#@@>>&&&>>&&>&#@% @#@ @@+#&@+#++#+#+@@@@+@@+++++  ++ @+++",
"++@@++@++++++++@@++++@+@@@++@+#+@++@+@+&@@&&&&&&&&>>,,,,,>>&&&&#@@&&&&&@ #&&&>&&&>>&&&#@@@#@@@@@#+##+#++@@@+@+@@@@+++++ +@++#+++",
"#+++++++ +++++@@+@@@++++@@@.#@+@@@##&&&+ @*&&>>&>>>&>,,>>>&>&&&#@#&&>&&&@@@&&&&+&>>&&&##@@#&@##++@#@#+++@@+++++++++++#+ ++#+++++",
"++++++@  #@+++++@+@++++@@+@@@#++#@#@&&@@@@&##@&>,>>&>>>>>>&@@&@#&&&&>&&& @&&@&&&&&@+@#@+###+@+#+++##++@@@@@+@+@+++#+++@.@+@+++++",
"++++.+ +  ++++@@@+@@+@@+#@#@++@##@++&#@#@@####&&&#&&&&&&&@&&&&&@&>>>>>&@@@#++#&&>@@&+&@@+#@#@@+@+##+#++++@+@+++++++++@@@@+++++++",
"++@+  ++   +++.@@@@@@+@@@+@@@+#+&+++@@#@@@@##&+#@@@@&&&&&&&>&&&&&&>>>&&@@@#####&&#@+++@@#@+@+++@+++#++@++@@@++@+++@++++  @++++++",
"#+.# + +++.+++.++@@@@@@@+@+@+++#+@@+++@@@@###&+&###@@@&@@@@&&@&&&>&&&&&&@@@&#@#@@@#@@+###+@##@+++##++@+++@@@+@+++++@+++  @+++@++",
"++@@@.@+ +@++@..@@@+@@++@@++++@++@#+#+@+@@&@#&@&#@@@&@@@##&&&&&#&@#&@&&+#@&#&&##@+@@+@#@####+@@#+###@@@++@@.@@+@+++++++ @+@+++++",
"++++@@@+  +++@++@@@+.+@@.@++++#+@++&#+@&@@##@+#%-#@%-%@##&&&@@@###@+&&&+  +@+@+@+@@+&+##+###+@+#+++@@@@@+++@@+@@+@++@#+@++@@++++",
"##@+.+.+  +++@+@+@++.#+.@+++@@@++++@+&+&@@@++##@';%---&&&+&&@@@@@##@@@#@  @+&+@##@+++@+@####@+++++@@#@@+++++@@+++@+++#@ @.@.@+++",
"++++.+@+   ++++++++++++@#++@@@+++++*&*+@   #+@ #--%---%&++&@@@@@###+&+@    @+&+@###+&+@@#+++++#++++@ @@#@++@+@@+#+++++.@@@++@+++",
"++@+.+..+   .     .   +         @@@@#@        ##%%%%--%    #@    @ @@          @     @    @           @    +       @@ @@..++++++",
"++@++++ @  +@.@+++@@@ .@@@+@ @   @+@@@@@#@  #%%%--%%-%@@@@#    ++@@+@##@@@@@@##@##@&+@@+@@     @.+#@@@ @@@ .     .++ @@ .#++++++",
"+++@+. .+ +@+.@++++++@@@@@+++  @+@+++@++#+@@%-%%%%%#  @#@#@   ++###+#@#+@@@##+@@###@+##@@@@@@ ++@+#@@@@+@++@++@++++++@ @@+++++++",
"@++@@  . @@@.@++++@+@@.@@ @++  ++++##++@+#+@%--%%%-  @#+#@## @+++#++##@@@@@#@@@#+@@#+++@+#@  @#++++@@@@@@@@++#+@+.@@@+ .#@++++++",
"#+#@@@++ +@@@#+@+@@@@@ @@@@@#  +++++#+#+@#@# #%##   @@@+##@@ ++@+#@@#++@@@@++@#+++#@@#++#@+  +++++@@@@++@@@+++.   .@.+@ ..##+@@+",
"+#++..++ +++.@.+@.+.@@+@+#+++  +@##+#+#+++++. @@  ##@@@+#+#@@++###+++@@@@@@#@@###+++++@#+@@  ###++@@++@@@.@@+@+ @@@@+++@@@@@++++"};
