/* XPM */
static char * South_xpm[] = {
"128 128 72 1",
" 	c #0E0F0D",
".	c #0F0F0F",
"+	c #0D100F",
"@	c #0F100D",
"#	c #10100E",
"$	c #0F110E",
"%	c #101110",
"&	c #11110E",
"*	c #12110E",
"=	c #12120F",
"-	c #13120E",
";	c #14120F",
">	c #12130E",
",	c #131310",
"'	c #14130F",
")	c #15130F",
"!	c #15140E",
"~	c #171410",
"{	c #15150F",
"]	c #18150F",
"^	c #191510",
"/	c #19160F",
"(	c #1B1610",
"_	c #1C170F",
":	c #1D170F",
"<	c #1F1810",
"[	c #201910",
"}	c #221911",
"|	c #231A10",
"1	c #241A10",
"2	c #271B11",
"3	c #281C11",
"4	c #2B1D10",
"5	c #2D1D11",
"6	c #2E1E11",
"7	c #311F11",
"8	c #362111",
"9	c #3A2312",
"0	c #3D2412",
"a	c #422612",
"b	c #452612",
"c	c #4A2913",
"d	c #4F2B13",
"e	c #532E14",
"f	c #572F14",
"g	c #5D3215",
"h	c #603415",
"i	c #643516",
"j	c #613819",
"k	c #683817",
"l	c #693816",
"m	c #6F3B18",
"n	c #6C3C1A",
"o	c #76421C",
"p	c #73441F",
"q	c #714723",
"r	c #7D4E25",
"s	c #835429",
"t	c #8C5C2D",
"u	c #946230",
"v	c #9A6833",
"w	c #A26F37",
"x	c #A67035",
"y	c #AB763A",
"z	c #B17B3D",
"A	c #B8803F",
"B	c #BE8643",
"C	c #C48B44",
"D	c #CA9048",
"E	c #CC9045",
"F	c #D09549",
"G	c #D49A4E",
"++++++ .++ .. . .... +... .    @   .@ # + @@@    @@           ##       @@  @  @ @@ @ @  @@@@   @      . ..    .  ...   .++.+++..",
"++ +++++ + ... . .. . . .    @@@   #  @..  # .     @    ##@ @ ### @#  @&#   #@  @&# @#  @&&@@#&@ @  .        .    .    +++++.. +",
"++++ +++++       ..# .. . .#@@@#+ #@&##+..   #@#@@@@@@@& &&###&&##@@@&@&@ @&@@ @&&&&@@   &#&&@&&  @ .  @   .      ... ..++++.+++",
"++++++++ +         #   . @@@@ .. #&&@  ++   &@&@&@@&)>&@&& @&@@&@&@&&&& @@&@  #&@@@@@  .  &&&&&&  @ #&&#       @.     +++++++.++",
"+++.+++++++..+    # @     @    .    . ....+.  ##@#&@&&@ @  @&@&##@&@&&&&>&&&@  # @@     .   @ @    .  ##@  . .....  .  ++++++ ++",
"++++ .+.++++ .++++       ++ +   + +     ..+ . .           ... .     .      .. .+. + ..         ++  ++. + +++  +  ++. +++++++..+ ",
"++++ ..++++  ++++        +++   .   .. .      .  @@        @# .   . .  ## #@@    #@# ..  .          ++      +   + +++  ++ ++...++",
" ++++.++++      .  .    @ +.     @      #   @ @>>&&#@   @@@@@&@  ..@@>&&@#@#@#&&&&@@&@ @ @@ #       + + @        ...  ++++++.+++",
"++...++.++ .         .             @@  #@  @ ##&>&@@ @@@&#  @&&&.  >&&@@@#@@@#@@&#@@@&@@ ## @.    @.++@     . .....    +.+..+++ ",
"+++.++++ + .        ....   .           @@@@  @&&@&@@## @@ @&@@@&  @&@##@@#@&& @@@@#@@@@@ & @       @ .       .  ...   +..+.  +++",
"+++.++.+ +.    .... . .  .  @       @ @@ #@ @&&&@#@@@#&@@@@@@@@@ @@&@@@@@&@&@#@&@@  &@&&&#          ++     .    .. .  .++.++.+++",
"++++++ +++.+.   ..     ..      .     ##@@@@@&>>&&@@&@#@@@@@#@@ @@ @&# @ @@&&&&#@#@@@ #&&@&       &## + @         ......++.. .+++",
"++++++++++.. . . . ..         .  ## @#&&&@@@&&&@## @&@@@@@@@@ @@ #@&@  @&&&&@&&#@@@ @@ @# @#@@@@ &@@  #         . ...  ++..+ +++",
"+ ++ ..+++. .   .     +          @##@@&@@@ @&&@@@@ @@&@&&&@&@ @&@@@>>&&&@@&>&&&&@&@#@ @@ @  @  @@ @  + @@          .   +++ .. ++",
"++++.+. ++.. .  .              @@@@@&&&&@ #@  #@&@&&&&&&@&@>>>&@  @>-)-@&&>&&&&@#@&@@@   @@#@@                  .   ...++. ..+++",
"++++ ...+...   .               #@#@@&&&&@ @@@@@@@@&@&@&@&&&&&>>&@ &&'->&&>>>>&&&#&@@@@@&@@@@@ @  @    @@ @.     . .....+. ++  + ",
" +.+ ..+.+....       @ @      @@@@@@&& @@##@#@&&#&&&&&>&&>&>>&@&#  >>>>&>=>@&&&&#@#@#@#>&#@@#&&&@@@#.  @@#.  ..  .. .  ++  + + +",
"+ . + +.+ .  . .             # #&@@@@@#@&&@@@@&&&->&&&>&>>>-)'->@@@-->)''>&@&@#@@ ##&#&&@@@####@ @    @ &     ..   . . +.  +++++",
"++++++++ . .. .         @@@   @&@&&@# #@&>&&&&>>-'>>>>&>-->-)'>-@@&=-!!)->&@&&&@@@&@&@@&&&@@@@@&#  & .&#@  @          .+++  ++++",
"++...++.       .        # &@##@@&&@#& >>-&&@&>-->>&&>>&&->>-'!'>@@-))~!'-=&->&>@@&->&&&@@#&@@@@@& @@..&    #    @      +.    +++",
"+++...+++ . . .  ..  #@& @&&#@@@&&&&>&>--->>-'--&>!-')-&>-))!)!&&&&)]]!!''~!>>>@>-->>&@&&&&&&&&@& @ . # @ @@          ++.   ++++",
"+++..+.++ .+...+  &&@#@&##@@&-&>>'&>>>-'&@-!-&@&-'!!!''-@!')!-@&@&&@&='!~)'>>!{>@@  @---&&@&#&&>@&   . #@&@  @@ .      +.  . +++",
"+ + ...+ + . +    .  .+    .   @       @  @ @@@& @&&&&@@@@@@@@@@&@&&@&@@&@@@>>>@>@@@@         @@   . +  .        +   +++.. . +++",
"+. .+.+ ++  .   +   . +    .  .           @@@   @ &@&@@@@@@@@@&@@@@@&=@@@@@@>>{@@@@     . .. .                      +++++  + ++ ",
"++.+ +++++++.       ... @&&@@@   @ @>>>&>&&&&&&->&&&--'-->>>'))-@'-)!!>>@>>{{>>@@@@@@@@#     &@&&@@@   #        .  .  +++++ ++  ",
"+ +.+++++++.   .        @@@ @@@    >>&&&>&@&@@&>'>->')'-''''!!!''!!~!!!'!!{{{{>>>>@@@@#&@  @&&&&@@@@# @#       ..... .+++++..++ ",
"++.+++++++       ..    @ #@@@@@@   &&@#&&&>&&>&-->&''->>''!!!!'-')!!'!!!>>>{>{>{{{>@@&@@@@ @&&&&&@@ @@@     @    +.. . +... ++  ",
"++++++++++. ..             @&&@@@ @&&#@&&&>&&>&>>>-!!''''!!!!!>)'!~~!~]>>>>!{{@>>@@@@@@#@  @&&@@@@ #@     @ @    .  ..  ++++ +++",
"++++++.++..  .  . .       @#@@&@  @@@@@&@&>->>>--;'!~!!~~]]!''!!]]]~]~!'>'>{!!@>@@@>@@&&@  &>&#&@@    @ @#@     ...  ..+.++..++%",
"  ++++++++.. .   .  @     @ @# @@ @>&&@@&'-@>-)!))]]~!~]]]~'!!~~]^]]]]]~!'!@@>>'>@>>>>>&&@ &>&&@@@@  @@&#@@           .+++ .++ +",
"++++++.+++ ....        @@ @ @@@&  @>-&&&-'>>>'!''!]^^^]]]~!~!~]/]/]]]]]]~]]!!')!>>>-&-'-&@ &@&&@@@ &@#@#@#             +++ ++++ ",
"+.+.+ .+++           @  @   @@@&  @->&&>)!>--!))!~]]/]]]]]]]~]/:((//]](((]]~]!~!''=->-->&@@ >-&&& &&@@@ @ @ @          + . ++++ ",
"+++..++  +        @#@  @@&#  @&@@ @&>>>>'-''')~))^]]/]//]^~]]_<(__(](___]]]]~^]!)''>='>-&& @'=&&@&&&@&@#@@ @     ...   +.+.+++ +",
"++++.. .+.       @ #@@ #@&&@@&@>  @>>---')')!!~]~]]]]/(:(]/_(<<(__//(<<:_(^//]/!!!)!!)>-@&@>''>>>@@@@@@   @@  @@.      +.   ++  ",
"++ ++ ++ .       # @# # @&&@&&&>@@&>>-'!!!!!~!]]]]]((_(:_:<<<<::_/(/::<](_(((_(!~!!!!)'>-@@&!'>&->#@@#@@&#@  # @    .  .+  . + +",
"+++++ +.+.          @###@@&@@>>-  @')'>)!)!]]]]]](:<(_:<<[[|}[<[[:__]:]]_::_/<_^]]~]])''!@@@~)-'->@&#&#@@@#@&###     .   .   + +",
"+.   ..+.+         &@@@&&&@&>&->  @'')'!!)~(/]]](_<<<[}}[|31121}[[::<__:<<::<<]__<((]!)]>@@@'!)-&>->&>&@@@@&&@##     @.+..   +++",
" .++... .+ @      &&>&&&&&>>>-'    @')!!)!](:((:<<||11<<}453344111121|[<:<<[<:(]:<<:(](!@@@@@=~-@@'-'-&>&&@&&### @@  .+...  + + ",
"+ ..++ .+++.... . ##@#@   @@@@      #=!!'~!)^]~(<:}1|:|1135433}3}34|:(<<(<<:]]!!!!]]~!@>@@@@@@@  @@@             @    ++.   ++ +",
"+ .. .+++++     .. .       @   ####@@&&@>-'))!]]](<<<}||1||133132|<|}<<<:__/((]~~)!'''->@@@@@@@@@@      ..             +  .  +++",
"+.+....+++++.      &@#      #@&@@@&-'-'!!'']]]::<<|}23473564678876555231|}<<<<:]]~~~]!-@@'>{>>@@@@ @    .. .   @  .  +.+ +.+++++",
"+.   +++.+       #@@&&&@ @@@&>>&&>!'!)!!'~!(_((<<|23477888990aaaa088887653|1}<<:(((]]]~'!!!'>@@@@@@@  #&    @@@#@  @   +. ...+++",
"++ +.. ++        @##@#& @#@&@&>->>>-')!!!~!]((<}2134689acdedddefffddca8886311}<:::(/(]]~]!'>>@@@@@   &&>@  @@  @@@    ++++.+.+++",
"+. +++++++ .    @@&@ @@&@#@#@&@=>&@>>'))!~]::<<|34479adfgjtvyyyyywtqefeda87431}}[<:(((]]''>'>>@@@@@ @&&&@  @@ @@@@     ++. +. ++",
"++..++ +++     @###@   @@ &@@>>->&>&-')']/(<:<|35789cfjvBFFEEEFFEEEECytjeea87531|:<::/!~!!!!>@@@@@@@&@&&@. @ @#@  @    +++....++",
"+ + ++.++             @ @&&&>>>'>&>->-')](_(<}1468aefuCEFBxusqppstwzCFEEyqed0764|<<[]]!!!!!'@&@@>&@@&&@@&  @@##@@      +++++. + ",
"+++.+. +.+              &&&&>-'-&>>')'']/]:<|3468bdqAECwqikkhikkllkiipwCEEyjeb843|<::]]~^!]'>>&&>@&&&&@&&@ @&#@         +++.  ++",
"++++ +.+++          @& @@&&&>''>>&-'!!)(:(:[3478aeqCFynhggghhikllkkgikiiuCECrfc741}<:(__:(~'>>&&>@&&&##&>@ #&#@        + +. + ++",
"+  ..+ ...         @ @@@@&&&>'=&>)'~^^]::_<}}379djBDvggedfkklklmlolihggkkoyFEsf062|[::<<_]~'-->>>&>&@&&&>@ @&  @        . .. .++",
"++ +.++ ++       @ @@@&&&&&&'!>--!~~]]<:(:[[147cdyGwfeccfikrzCEEDAwpkkiikmmvFEqd8431<}[<:]]!-'>'->-& @@&@@ &@@            .  +  ",
"+++.+.+.+     #  ##@@&>&>>>-)'-''!]]](_:<<}3369eqFBffbbdinyEEEEEFFFFzslmikmozFze06421|[:<(]~')''''&@@&@@@  &&#           .    ++",
"++.  ++...     @#@&&&&@-&=)''-=!!!]](_:}|33478afzFtgcadgpBECvskiptyCFFAoomoAFEse85543|[<[/(]!!!!''&@&&&@@  >& @ @@@    +....+ ++",
" +++ ....+  @  # @>->&&&&-!!->)~]]](/:<[|13678dgEChe0aegBFymigffgimlvCEEtuCFDsec74333||<[//!]~!>-->>@&&&@  >&# @       . .   ++ ",
"+++++...++     @@&&&@@&>--!!-'!//]]]_(<||11690frEzidaaftEBmigccbccfhkozFFFFzphc96334441|[((~!)'')''>>>@@   >@&& @ @@@& ..  + +++",
"+    ....    @@@  @>&>-->=!!~!]](](](||<}6668aetEyhcbcgyFvkfeaaacbbadhixFCtlhda076461}11<:]]])!'!!'''>& @   @&>&@  #> . ..+++   ",
" ++++.  . ++ .  .         @&>&&&>>'!)!!](:<368etFygcachyEtkdba00aa00aafhrhgd97533}<<:]]^)''>@&@@@   @                 .+.. +   +",
"+++++.. +  ++            @@#@&@&&>--!!~](<}379esEyidbchwFwlfbaaaa0aaaaaefeb98743|<<_:/]!)))'@>&&@@@#@          .     ... ..  ++ ",
"++++ .+++. .  # # @>>>@@@>>>@&&@@)]]((](:<3458cjFBlebcgqFCngdcaabaa00a0aa08787674||[}<::<(/!'@&&>)@&>-->>>&&@@  @#@@ ..      + %",
"++ .+.+..+ @#    @@@ @@@>>>'-@@&!]]]]/(::|4578cfAFpgaaehvEBrhhfecaabaa0aa009986443[}<<<1:]]))>&)!->>->&->>&#@&@ @ @#  +++.  ++ +",
"+++.+.++++     @  ##@#&->>>-)>&=]]]~]]:<||14670fuEygdbcghxEEzriihfdcaa00a098877563}<<[[[:]]]!==))'>-->>>>& #@@@@  @  @ .+.. + + ",
"+++.+ +++.  @     @ @@&)''==')>']~~]](_<<[13468dfBFrgecdhiuCEEBvriikgdcbb000876631[<:_[</]]!!-)!)'>--->&&@@@@ @ @@     ..  ++   ",
"+++ ++++ . @ @@  ####@&'>!'=>'@)]]]~/_(:<<|2448bhrECqgffegkkvAEFECxslihfcaa8997541[<<_<(]]!!-=>!!->>>->&&&&@@ @ @  @   .   + +  ",
" ++  ++...   @@@  @@@&&>>>))!~@)]]^](:<[<[|34689dfuECsikifhkmmovAFFGCxphgdcaa97533||}[:(_/~!->'''->>->>>>&&&&@ @  .  @ .. .     ",
" +++.+.+ + @ && @  @@@@&@='!]]=>]]]((<<<:|1234780efuEFzplmkiikmmoouzDFFzrghea876341||<_:/~]!~!!)''''--=>>->&@ @    @   .      ++",
"  +.......   @#  # &&&&&&>')!~@>!~](_:<::}1335788afhrAFFAummmlmmmmmmmvBFEAqhea975431}<_:/((]!>!!'!!'-->>>->@#   @      .    +   ",
"++.    . .  #     @&&>&>>>@>)'@,!)]((((_:<[135778aafgiuCGFGAuomommkkmmlrAFEuge008433<::<<__]~'/(~!)'>>&&@>&@ @  @   @  .        ",
" ++++ .  .      @@&&&&&>>>''!@@,!!]^](]<:<}|3377800adghhtBFEEFAvoommighkktDFvhd07743|}<<</_]]>/]]!!--->@&>@   @ @@@@   .    +   ",
"   +. . .   . @#@@@&&&>->>>>'>>>>]]]]::<[[||3377800cabdfginvzCFFFBwomigfhirCErfa08623|[[<(]]/'_/~!''>->>->@@@ @@@  @         ++%",
"+.+ +....+#  ####&@&&-)>@>@>{>@,//{](<}[<[}15667889aaabcefgiikrwAFEDxnifdfhsEBgd98642||[</((_']]]!''>->-'>&&#&@@ @@@@  +.  + +  ",
"+  .++... # #   @@@>-!>@>>>>>>@>{/{]_[<[<|24557890a0aabcccddefhklpwDGCphddgixFtf07741|}<[[<:(']_]!!>)'')!>>&&@@&@@@@ #   . .  + ",
" + ..+..++     #@@@-)'@@>>>>{!>{{/]_]:[[1432467000aabaddcddccdddfilnAFAlgddhrGzhd96333|1|[:(!''/]])))!)'-->>&&&&@##@ @ . +.   + ",
"   ++ ++.. .@ @@   @@>@@@@>>{!{{{/,>]]]([|<1667809aehgddedbaaaaaadgikBFsgdcfhCCfe87133_:]/]])>>-!'->>>-&>&>&@&  #@&@@   +. .  + ",
"++..  .+++.  +  .     @@@@@{{{>>{{!{!!~](:<<35789cgkukhedcaaaa000abdkuEwidbdhAGgd8631<:(]!!)>>>&&@@@        .          ++.+.    ",
"++ ++.+ ..+             @>>{>{{>{{//!>!^:<[|678cehtCEAnkgcbaaa000bcdiuExiecdhBFfc7641<<(]!!'])>=-&&&@                 + ...   + ",
"+++++. . +.###@@@&@@@@@@@@{!>>{{{/{{/__<|}3670ehnzEFDEDrmkfcddcaacdgmyFukedgkBCgda8741}[::((]~)!~'>->@   &-&@ @@  @@  .  +.+.++ ",
"++++.++.++    @@@&&@#@@@@@>>>@{{//{>!/:_<|168dhsCFDuoBFEwmkhefdccefkpDFpiddhqEAhc086|<:<__]/]!]!!)'>>>  &>@&&#@  @ @ @  . .+  + ",
"++++++   .    #@@@@@#@ @@>>>>@@>,!!!]/_:}126agvEFzommoxGGCvnikigkilrBFxkfddhvEwfa843[<_:</]]]!]!'->->@@ >&@&&@@@@    @ ...      ",
"++ ++   +     @&@ @   @&@>>@>>@@>>!/]/(_<}350fxEBommkmorAEEEyvtstvAEEAlidegkCEqe8643|:_[:(/~!)''->>>->&@>&@@@#@      @ +....    ",
" +  + .+ .     @@  @@#&>>&&>>->>''!]/]_<<1370djCFzmmlkmmmryCEEFEFEFDvkiffgiwFygc8632}:<_(_!)>')''->>&&@ >@@            .+. . ++ ",
"++ .  +. .     @@@ @@@&>>>&>-->>')!]^](_<}|68afqCFArlmmmkmmmswxzywtmliffhkuFCnf06311|<_:(])))))'>>--->@ >&  @ @      @ . +     +",
"++  .+.+.   #    ## @@&&&>>&>>>>')!!]^](<[1568afnAEDvommkkkmlmmmmmllkfhilwFFsfb743311<<<_/'>!''''''>-&@ >>@ @@@@@      .. ..  + ",
"+++. ..+.         @@@#&&@&>>>>-='!!]]]//:<12688afgwEFDxomllmlmlllmolllkrAFDsfc8743323<:/]]!))!''->!->&@ &>&@#@  @@    @      .  ",
"+  +++  +  @ @@    #@@&@@>>>->>=')!]]]](::|23578afipyFFEAvrmmmmommmmouzGEArgd0743123}((](]]!!)''>-->&-@ @>>&@&@   @# @  .     + ",
"++...++++         ##&&&@&>>>>>>>>)!~!~]/_:||346880dfipwBFFEECBzyzzACFGFAshfca864311}<_](_]/!!)''>->->-  &->@@@@@   @ @@ .     + ",
"++.+..+..          #& @@@>>=-'--')!!~~]^(<[||346790begiipvzCEFFFFGFCzvqhhda997553|}[<:(//(]~~)!)''&>>>@ >>#@@&@@@  @ @      +.+ ",
"++.  ++. .@      @@@@@@&&&&->-'')-@!]]]]/:[[:[24770aabdegghginrsrqkihhgda088743431<::////]~!~!''''->>>@ >@@# #@#@       ..     +",
"+ +.++ + +# @   @& # &@&&&>>')!'))>']]!]](_]:<[467890aaaacdeeefffggfdc00988664423||[<_/(]]!!]]!!'>-->@  @&@&@#@ @   @@..+ .+   +",
"++.++++.++ @@  @## @&&&#@>>&>)!'))>>>,>!/_]//[<}35770a0000aaaaaaba00ac99877443223<1|:((/(!!)]]~!>!!)@     @@&>@    @ .++ .   +++",
" +.+++++..+.       #  @ @@&&&>>@@@@@>>>!>/{//_(<<}457687777889888090883565|11||[](<<]]]!)')!!)))>&>@         ##      +... . ++ +",
" + ..++.+ +++ ..              @@@@@@,{!]{//{{/(::<|1233344567765666665342|<:<(]/]]]~!!!'=->=>>=>>@ @             ++ ++.+...   ++",
"++...+++.+       #  @&@&      @@@@@>{{!!]/_!!/:[}11365433478876778877641<}||[:^]]~]']/:(]!))-~)''>>& #@               ..++. ++++",
"++ .+..++  # & # #  @&&>@----->@@>>>>>>{{_//]_<[}|33563333676777877643|21|<}<<_]!!^/_:__]~')!)-->&@->>#&@   @         +..    +++",
"+++.+.++. @  @ #   #@&&&@&>>&>>@@>>>>@@{!//!!]::<|113|13133344766312433|1|[<<:(!!!<(]//(]!'''>'>>-->>&&#     @    @     ..    ++",
"++..+++ ..     @@  ###@@@&&@@@&@@-@@>>>>>>!]/]/:<[}1}<<1}12126431131}111|}[(__]!!~(]]]/]!))''--&&>'>@&@#      @ @        .. . ++",
" + ..++++.     @@#@#   @@>&@   @@->->@@@>>>!/]](<<<[(::<<112241}11}|<[}}:_^___]~!)]]]^/!))')->-&&--&&&@       @@@     @ +++     ",
"+++.  +. .     @ @@    @@&@&& @  >->@@>@@>>']]/(_<<(::::[|||31<<[11<<::_]]](__/]!!^~]]!!))'>'>>>>>&&@&     @ @@@        .+.   ++",
"++.+++..+.       @@#@  #@&&&&@@@ >-@@>>>>'))!~(((<(_::(<}}1|||[[<[[[:((((((/]]]!>'~^~~!!!''')->>>>&&@     @ @  @   @     . .  ++",
"++.++ + ..     @       @ @&&@@&@ &>>>->)!]))!]](////_::<[<|<}1<<[|:::::(]_/]]!!!'>)!!!]!!)!'-&>>&>@&@   @#    @@@@      ... + + ",
" +++++. .        @#   ##  @&@@&@ @&@>->'!!=)!!]]////(:_[<<<_<<<[[:/(::::(:]]~~!'=>>!!!'))''>-->>&&@@@#@##   @           .. . +  ",
"+++.++. .        @@    # @@@&&&   &>&>=-''>'!!~~]/]/((:<<}<::_:::(//(_<_(/]]~!!>=@>>>!>>''''>->&&@@#@&>&@@   #  @  ..  + .      ",
"+.+++ ++.        @@@  # @@@&@@&@@@&>&>>'=>-'!)]]]]](]]]<<<<<(:::_(]](_((_]]!!!!>@@{!!>>@@'>>>-&&&@&&>>>&@@@###@        .. .   + ",
"+ +++. +. #        #@@@@&&@@@&&  @@&>>-'>=='!!!]]]]](]/(_]](/](/(]]((:<(/!!!!>>{@@>{>{!{@> &-'>&&&@@>>&@  @@@#               +  ",
"+.++ ..  ..        @@@&&@@@&&&#. &>&&>-'>>-!'!^~]!']]](/!~]~]((</((/]]_]~!!!!]>>>@>>{!{>>>&>)'->&&&&>>   @#@    @ @    . ....   ",
"+ ...+ + +     @ @ #@&@&@@@&&&   @&>>>&-'--)~!')>=']]/((^~]](::::](/(]/]!!!/!>>>>>>>>>@@@@&>'-)''>>>&&&#&&#    @@#  ##. .  .. ++",
"++.++ +      ##&@ @@#&@   &>@      &>--'---'))'>>@)/]]](!~:(_:(]](~/]!/])>>@>@{>>{>>>@@@@@@@@&''--@ &&@#@#    &#&@## . ... ++ + ",
"+++  + + ..      +  .+.+                  @@@&@&@@@>-=>>->--->>->-=->=>>@@@@@{>>@>{>{>@@@@@@@              ..   +     +...   + +",
" ++ +.+  +.. . .         @@ #@@@@ &&&@@#>-')-->>@@!]~=->>>--==>~!~'!>@@->>@@{{{>{>>>{{@@@@@@@@      @#@#@@ .      .   ...   ++++",
" +.++  +.+.           @@&&&&@&&&@&&&->=>->'-'-->-~~/]~'>))>=->!]/]]!!)!~!>>@>{>{>>>>{>@@@@@@>>&    &&@@#&&@ @# #   @   ...   +  ",
"++.+.          .       #@@## @>@&&>&&&&>--&&&>>'!!!!))!)]]!&>@]]!~~!]'>>>@>@@>>>>>>@@ @@@@@@>>&@  &>@@@@@&@@@@@@       ..    +  ",
"++..+  +              @@@@ #  @@&@@&@@@@>>@&&----)!)')!!]~~=&>!)!)'!'>'&@&&&@@@>{{{@@@@@&>@@@&@&@ &&&&@@ @@@@@    ..  ..+.. +  +",
" +++  +  .            # @#     @&&&@#@@&&>&@&>--''-)'-->''!)&@-!!)--'''>>>>@@@@@>>@ @@@@&&@ #@@@@ @&&@@@@@@   ..  . .  .+. +.   ",
"  ++++ +..    .  .               #@@@@ @@&&&>&->--->>>>&>''>@@>-!'>''=!---@@&@@@@  @@@  @@@&@# #  #>>@ @ @@   .  .  .   ...   + ",
"+++++   ++   . ..  @         @  ##  @ @&&&&&>--->>&&>>&>''&@@@>>>'>!'->----->&&@ @ @@@@@@&&&@     @&@@@   @@#    .    .. ++     ",
"+ .++    + .. ..    @     @   @ @@@#  @@&&&&&-->>&&>>>@>>>-@@@&&&>''>->>>>&>>@@ @  @@ @@@@&#&@@   @ @               .   +.+. ++ ",
"++++  +  +                    @@# #@@&&&@&&->->->>>>&&&&>&@&  @@&&'--'>>@@@&&&&#@@@@@@&&&#  &@@#  #@@@@@          . ... ..... + ",
"+.+.+ + +  .                  @@   @@&&>&@>>>>&@@&&&@&&->&&& @&&>>>>->>&@@@@@ @@@@@ @&>@&@@ @@@#@ &  @@#@ @       .       .  .+ ",
" +++++  . ..         .        ##&@ @&#&&&&>&&>@&@&>>>>'!->>@  >&>>>@&>&@@@@&&&#&&&@ &&-&@# @@@#@. &&  @      . ...      +.    + ",
" +++++   .  ..   .       #   # @#    @@& #@&&&@>&&&&--!->'&@@ >>>->&>&&&@&&&>&&>&&   &>@@ @@ ###  ##             .    .++++. +  ",
"+.+.. + .  ...      @@  @ @@# @&&## @@&#@@@>>&>>>>@>-->>'-@@@ >>@>&>&&@&&->>-@>&&@@ # #  @ @@@@&           @  ##   .  .+.+.  +  ",
" ++++ +       .... @@@  # @#@#@@@&@@ @  @#&&>@&&>>>>-&&->  @@@&-&&&>&&>&&&->&#@&&&# #@@@#@@&@@      @#   @  @@@     @ ++..   +  ",
"+ ..++    +.   . . @&#@   . @   #@&@ @    @&#&@@@&&>&@>&  @@@ @@@@ &@   @&-@#@  @ @#@&&@&&#   .    .. @             ..+.++.. +  ",
"  +++.. .          . +.+.     . .          @     @@         @                                       .  .   +   .  +    + ...    ",
"+ +++++.   . .+  .   ..       ....   @@#&&#@   @&@@&&&&@@#>>>&@@# @ #   @    ..  @@@@      @    # @            .  .   ++.  .  + ",
" +.++.   +   .. . ..  ### #  @#    #@@&&&&&&@ #&@>&@&&#&>-)'-&@&&#@#@#&@  @#    >>&@&&####@@@@ &&@@@     @  .      .  +..+ .. + ",
"+ .+     +.. ..       @                ##@@@  @@&>&@ @@@&>>-@##&& @@@#@#@@@##  &>&@ ##@ @ @ #@ #&@@     @#  @    ..    ....+.   ",
"++.+....  ..+...  . .  @         . @          @ @&@#@#@ &&&&&@#@@@&@###@ @@@#@ @@@ @ @     @@  @@         @        . .  ..++..  ",
"+++  .. + ..+ . .   .        .   .          @  @@ @#@&@@@@&>>>@@&&&@ .  @@@@@  @#@      @   @ @    .        .    .. .  . +.+ .++",
" +. +.  +. ..  . . .     .       .            # @@@@@@#&@@&&--@@@&&@@@ @@#@ #   @   @@@          @  .      .   .  .  . + ..  .  "};
