/* XPM */
static char * West_xpm[] = {
"128 128 256 2",
"  	c #030405",
". 	c #020504",
"+ 	c #060503",
"@ 	c #020607",
"# 	c #040604",
"$ 	c #040606",
"% 	c #080504",
"& 	c #020708",
"* 	c #080703",
"= 	c #080705",
"- 	c #050807",
"; 	c #060805",
"> 	c #070804",
", 	c #040907",
"' 	c #0D0705",
") 	c #070906",
"! 	c #0C0802",
"~ 	c #040A0A",
"{ 	c #0A0903",
"] 	c #090907",
"^ 	c #0A0905",
"/ 	c #0C0905",
"( 	c #0B0A06",
"_ 	c #0C0A04",
": 	c #090B06",
"< 	c #090B08",
"[ 	c #0E0A05",
"} 	c #060C0B",
"| 	c #100A04",
"1 	c #0F0B03",
"2 	c #0E0B08",
"3 	c #0B0C0A",
"4 	c #0C0C08",
"5 	c #0D0C06",
"6 	c #100C07",
"7 	c #110C05",
"8 	c #120C03",
"9 	c #150B04",
"0 	c #160B04",
"a 	c #130C04",
"b 	c #130C06",
"c 	c #160C03",
"d 	c #120D07",
"e 	c #150D03",
"f 	c #110E08",
"g 	c #170D04",
"h 	c #180D03",
"i 	c #150E07",
"j 	c #170E03",
"k 	c #1A0D04",
"l 	c #190E02",
"m 	c #160F05",
"n 	c #1A0E03",
"o 	c #1B0E03",
"p 	c #170F06",
"q 	c #1C0E04",
"r 	c #151008",
"s 	c #1C0F03",
"t 	c #191004",
"u 	c #1D0F03",
"v 	c #1B1003",
"w 	c #1F0F04",
"x 	c #200F03",
"y 	c #1E1003",
"z 	c #1F1003",
"A 	c #211005",
"B 	c #231003",
"C 	c #211103",
"D 	c #221103",
"E 	c #241103",
"F 	c #261103",
"G 	c #251203",
"H 	c #291203",
"I 	c #2A1203",
"J 	c #281303",
"K 	c #2C1303",
"L 	c #2A1403",
"M 	c #2B1403",
"N 	c #301302",
"O 	c #2D1403",
"P 	c #2F1403",
"Q 	c #2E1503",
"R 	c #331402",
"S 	c #321503",
"T 	c #301603",
"U 	c #311603",
"V 	c #351603",
"W 	c #331703",
"X 	c #371703",
"Y 	c #351803",
"Z 	c #3A1702",
"` 	c #391803",
" .	c #381903",
"..	c #3D1902",
"+.	c #3E1902",
"@.	c #3C1A03",
"#.	c #401A02",
"$.	c #3F1C03",
"%.	c #431B03",
"&.	c #411C03",
"*.	c #451C02",
"=.	c #461C03",
"-.	c #431E03",
";.	c #481D03",
">.	c #471F03",
",.	c #4B1F02",
"'.	c #4A2003",
").	c #4E1F03",
"!.	c #4E2002",
"~.	c #502003",
"{.	c #4E2203",
"].	c #522102",
"^.	c #542202",
"/.	c #512303",
"(.	c #562302",
"_.	c #542403",
":.	c #592402",
"<.	c #5B2503",
"[.	c #582603",
"}.	c #5A2803",
"|.	c #5F2702",
"1.	c #5E2803",
"2.	c #5D2A03",
"3.	c #632902",
"4.	c #622A03",
"5.	c #652A01",
"6.	c #672B03",
"7.	c #6B2C02",
"8.	c #662E04",
"9.	c #692E03",
"0.	c #6F3003",
"a.	c #703002",
"b.	c #6D3203",
"c.	c #763303",
"d.	c #733503",
"e.	c #783402",
"f.	c #793501",
"g.	c #7E3703",
"h.	c #7B3803",
"i.	c #7D3803",
"j.	c #7B3B03",
"k.	c #7F3A01",
"l.	c #833B03",
"m.	c #813C03",
"n.	c #883E03",
"o.	c #874103",
"p.	c #8B4104",
"q.	c #8C4102",
"r.	c #8F4303",
"s.	c #924303",
"t.	c #8C4603",
"u.	c #914502",
"v.	c #954703",
"w.	c #924804",
"x.	c #9C4A02",
"y.	c #9A4B03",
"z.	c #974E04",
"A.	c #9E5004",
"B.	c #A25003",
"C.	c #9B5606",
"D.	c #A35503",
"E.	c #A75402",
"F.	c #AC5703",
"G.	c #AA5A04",
"H.	c #A75E06",
"I.	c #B25B02",
"J.	c #B55F03",
"K.	c #B36104",
"L.	c #B26606",
"M.	c #BB6403",
"N.	c #B86604",
"O.	c #AF6B09",
"P.	c #C26903",
"Q.	c #BE6B04",
"R.	c #B66F07",
"S.	c #BC6E05",
"T.	c #CB7204",
"U.	c #C87305",
"V.	c #C1770B",
"W.	c #C77605",
"X.	c #D47902",
"Y.	c #D07C05",
"Z.	c #CC7E09",
"`.	c #CA820A",
" +	c #DA8404",
".+	c #D38712",
"++	c #D88707",
"@+	c #D88D0D",
"#+	c #E68F03",
"$+	c #D69223",
"%+	c #DB9515",
"&+	c #E19319",
"*+	c #D79926",
"=+	c #E5980B",
"-+	c #D49B35",
";+	c #E09E2D",
">+	c #E59F12",
",+	c #E59F24",
"'+	c #E09F38",
")+	c #E3A326",
"!+	c #DFA53A",
"~+	c #EEAB20",
"{+	c #E9AC3E",
"]+	c #EAAF33",
"^+	c #E7B241",
"/+	c #E8B151",
"(+	c #E4B359",
"_+	c #E6B449",
":+	c #ECB34D",
"<+	c #E5B754",
"[+	c #E5B974",
"}+	c #E6BB67",
"|+	c #F1BC41",
"1+	c #EABE60",
"2+	c #EFC25B",
"3+	c #ECC274",
"4+	c #EAC667",
"5+	c #F6C653",
"6+	c #F1C76E",
"7+	c #EECA5F",
"8+	c #F5CA60",
"9+	c #ECCB7B",
"0+	c #F0CD87",
"a+	c #F1CF72",
"b+	c #F6D16A",
"c+	c #F4D563",
"d+	c #F5D65B",
"e+	c #F7D675",
"f+	c #F5D86F",
"g+	c #F4D985",
"h+	c #F6DC76",
"i+	c #F6DC7B",
"j+	c #F7DC81",
"k+	c #F6DE92",
"l+	c #F9E168",
"m+	c #F6DE9B",
"n+	c #F4E191",
"o+	c #F8E375",
"p+	c #F9E681",
"q+	c #FBEA6D",
"r+	c #F8E892",
"s+	c #FAEA7B",
"t+	c #FAE98C",
"u+	c #FCEE78",
"v+	c #FAEE9A",
"w+	c #FAEDA9",
"x+	c #FCF180",
"y+	c #FCF286",
"z+	c #FCF28D",
"A+	c #FCF389",
"B+	c #FCF493",
"C+	c #FCF499",
"D+	c #FCF6A0",
"E+	c #FCF6A6",
"F+	c #FCF7AD",
"G+	c #FCF8B3",
"@ @ @ . & @ @ @ & & & & & & @ , , & , $ $ @ $ - $ $ - $ $ - ; ; ; ; = ) ] ; $ = ] ) - ) < ] ] ) < < < ] ( ] ] ] ] ^ ] ( ^ ] ] ( ] ] 4 3 ] 4 ] ( 3 3 < ] ] ( ] ] : ) < < ] < < < ] ] < < < < } ) ) ) ) - ) ) ) ) $ , - , - - , - , , @ & & & & & & & , & & & & & ",
"& @ @ @ . @ @ & & & @ @ , @ @ - @ @ $ $ @ $ - - $ - - $ - $ - - ) ; = ; ] = ; = = ] ) ] ] ] ] < < ( ] ] ( ( ] ] ^ ( ] / ^ ^ ( 3 4 ] 4 4 4 4 4 4 4 3 3 ( ] ( ] ] ( ] < < < ) < ] < ] < < ] ) < ) ) - - - - ) ; ; - - - - - - , - , @ @ & & & , & & & & & & & & & ",
". . @ . . $ . . . . . . . . $ . $ . $ $ # $ # # + = # $ ; - # $ - = = = + ^ ) = % * ^ ^ / / * ] ! | | * [ ^ [ [ ! ' [ [ | | | 7 [ [ [ [ / ( 5 4 | ( 4 ( [ [ [ [ / ^ ( ^ { ] ( ( ^ ] < ] ] ] ] > = = ) ) = ) - ) ; ; - $ - - , , - @ @ @ & , , & & & & & & ~ & & ",
"@ & @ & @ @ . . . . . . . . . . . $ $ $ . $ # $ # # - - - ) ) - ; - ) ) ) ) < ] ] ) ; = ^ ^ ] ! / [ ^ ^ ] ] ( _ ( ] / [ | / [ / [ 5 / ^ 5 5 ( / 5 4 5 | 6 7 | [ [ ^ ] ( ^ ^ ] ] ( < < ] < ] < < ] ] ] ) ) ; - - $ ; ; ; - - - , - , , - @ @ ~ ~ & & & & & & & & ",
"& , @ & & @ , @ @ . & & & & @ $ $ . - - - - $ $ $ ; $ ; - - ) - - ) ) - ) ] < ] ) < ( ] ] ^ ^ ] ( ] ] ( < ] ] 4 4 4 4 4 4 / ] / ( ] ( ( 2 4 2 6 5 4 2 5 2 [ 4 5 / 4 [ _ ] ^ ] ^ ] ] ] < ( < < < } ) ) + = ) - ; - - ; $ $ $ . $ - $ @ , , ~ & ~ ~ & & & ~ & & & ",
"& & & & & , @ @ $ @ . @ $ $ , $ $ - $ $ - - - $ - - ; - , - - ) ) ) ) < < < < < ] : ] ^ ( [ _ ^ ^ ( ( / [ / ( 5 5 [ 6 4 5 [ 2 [ 2 2 [ 6 6 6 5 6 6 4 [ 4 4 4 4 / 2 4 4 ( < 3 4 4 ] ] ( 4 : ] ] < 3 < < < - # ) < ) - - } ) ) , , - , , @ , , ~ ~ ~ ~ ~ & & & & & ",
". @ @ & & & @ , & & & $ $ $ @ $ $ , , - - - $ - ; ) - - ) ) ) ) ] ) ] ] ] < ( ] 4 ( / ( / ( / / / [ / / [ [ [ [ [ 7 6 6 6 | | 7 6 2 6 f d 2 6 6 6 6 6 6 6 2 6 4 4 2 4 5 : 4 4 4 4 3 4 4 3 ( ] ] < 3 3 < ) ; ) ) < } } ) - , - - - } , ~ , , } ~ ~ ~ ~ ~ ~ ~ ~ ~ ",
"@ & @ , $ @ @ @ , , ~ & $ $ $ $ . & & @ ; - ; = ; ) ; ; = ) ) < ) ^ ^ ^ ] ] ( ( / ^ / / [ [ [ [ [ [ [ | | [ | | | 6 7 7 d i b [ | 7 7 7 7 6 f 6 6 6 6 6 6 2 6 2 6 2 4 5 4 4 4 4 4 4 4 4 3 3 ] ] : ] 3 3 - ; ) < ) ) ; - ) ; ; ) - - - , , , ~ ~ ~ ~ ~ & ~ ~ ~ ~ ",
"& @ @ @ @ $ . . @ $ $ - , $ $ $ . $ ~ $ - ; ; ; = ; = > ; : ) < ] ^ ^ ^ ^ / / / [ [ [ [ | | | | | | 1 7 b | | | 6 7 6 b i 6 [ [ 6 7 7 7 7 d 6 f 6 7 | 7 7 6 [ 2 5 [ 2 5 4 4 4 4 4 4 4 4 4 4 4 ] ( ] 4 < < ; ^ ) ) = = - ) ; - - ) - - - - , @ ~ & } & ~ & ~ & ~ ",
"@ @ @ $ $ $ $ $ @ $ $ # $ $ $ $ $ $ ; # ; - = ; ; = = ) = ) = ] ] ( ( ( [ / ^ [ [ [ _ [ [ 7 7 1 | b 7 b 7 | | 7 7 b b i d f 7 6 b a 7 7 d b a 6 7 7 7 7 b 7 7 6 6 [ 2 2 2 ( ( ( 4 4 4 4 4 4 ( 4 ( ] 3 < = = ] ; ; = ; ) ) ; ) ) ) - , - - - ~ ~ & , & , , ~ ~ ~ ",
"& & $ @ @ @ . . $ $ $ - # $ $ - . - - # ; = ] ) = ; ] = ^ ] > ( ( ( _ _ _ [ [ [ | [ 1 | 7 | 7 b 7 9 9 b 7 7 | b b a g g h a d 7 b g b d a b a b a b b 7 7 7 | 7 7 7 [ 2 2 4 5 [ 4 4 4 4 4 5 4 4 4 : < < ] = ^ ) ) ) = = ; ; ; ; ; - - , , , - , , ~ , & , & & ~ ",
", & & @ $ . @ . . $ $ $ # . # ; # $ - # = ] ] ) ) ) ] ] ] ^ ] ( ( ( ^ _ _ [ [ | | 1 | | 7 7 7 b a 7 7 b b b a c a 9 g g k g i 9 g k 9 9 g g i 9 b b b b 7 7 6 7 7 7 6 | 1 [ [ 2 [ 2 4 5 4 4 4 4 4 3 < ] ] ] ^ ] = = ) = ; - ; ; ; , ) , ~ , @ - - , , , & & & & ",
"& @ $ @ $ @ $ $ . $ $ $ $ . $ $ . # - = = ; = ) ) ] ] ( ] ( ^ ^ ( [ [ / [ / 1 | | | 1 | 1 | a a | b b a 9 b g g g k q n u g i 0 k k g g g g g i g i i b a b b a 7 7 7 6 6 6 [ [ 6 [ [ 5 5 4 4 4 ( ] ] < ] ] = ) = ) = = ; ) ; ; ) ) , - - - @ @ - & & & & & & & ",
". . $ $ . $ $ $ $ $ $ $ $ $ # ; . $ ; = = = = ^ ] : ( ( ( ^ ^ ^ ^ 5 _ / [ [ [ | [ 7 7 7 7 7 7 b 6 7 g h c g g g k o q u w n q n u u o k o n n k g 0 i i i i 9 a b a 7 7 6 6 [ 6 6 [ [ 6 5 4 4 5 4 ( 4 ] < ( ) ) ) > ) = ) = ) ; ; ) , - , - @ , - & , & & & & & ",
"& @ @ . @ . $ $ $ $ $ $ $ . # ; $ # # ; ; ] ] ] ^ ^ ^ ( ( _ ( ^ _ / [ [ [ | [ | 7 7 1 1 7 b 7 a a g k g 0 g c h q w A A A w q q w w q q u w q q k g g 9 9 i g i g i d d 6 7 6 6 6 [ [ [ 6 6 5 5 4 4 3 = ] ( ^ ^ ) ) ) ] = = = ; ; ; , - - ; ~ - , @ , & & & & & ",
". . . . . . . . $ $ $ $ $ $ # = ; + # = + * ^ ^ ^ ^ / / [ [ [ [ [ | a | a | | a a 9 9 9 c c h k o k o o q q q w B F A B F A B F H F F B A B F B B x w u o k k 0 h h 0 g 0 9 a 9 a 9 g 9 a | [ [ [ / < 4 ( ] ^ ^ ] ^ * * + * + ; ; + + # = $ # # # $ $ $ $ @ $ $ ",
". $ . $ $ $ $ $ $ $ , - $ # ; ; ; ; = > = = * * * { ^ { [ [ [ [ [ [ [ 1 a | | | | 9 | a c b c c k q q k x x B A u B B A B A H I E H H F F I F F F B A q q q A q q q g 0 7 7 b 7 b b 7 7 7 7 [ [ [ _ 4 : ] 3 ( ( ] ] < ) ) = = ; ; ; ; = - = ; ; $ - $ , @ - @ & ",
"@ @ . $ $ $ @ $ $ $ $ - - ; # ; ; ; ) = = = = ) ) < : 4 4 ( 4 4 4 2 ( 4 [ [ 6 6 2 [ [ [ | [ 6 7 b b i 0 i q w y z z D E H I Q H T M J G J E G E w z o n g h g i i b i d d 7 6 7 7 6 7 7 6 6 4 4 ^ 4 4 4 < ] ( ] ) ] < ) < < ) ) ) - ; ) # # ; , - - , @ @ ~ @ @ ",
"@ & @ @ @ , $ $ $ - - - $ - - - ) ) ; ) ; = ) ] < ( 4 3 4 4 4 4 4 4 4 6 2 5 7 | ( ] [ [ 6 6 6 6 d a i i b 9 r i 9 k z A z G G M M M J G G A A o u j p p j i d i 9 d 9 i 9 f 6 b 6 5 7 6 4 4 4 4 3 3 ] 3 ] < ] ] < < ) < - < < < - ) ) ) - - ) $ # - $ , , ~ ~ } ",
"& @ , , , - $ , - ; - - ; ; ) ; ) ) ) ) ) ) ] ] ( 4 ] 5 5 4 / ( 4 6 7 [ d | 7 4 ] 6 [ a a b b b 9 a i p n n q A B E A H P O ` *.*.#...` V S O H G A D E A q k k n n k i i i i g d 5 d 5 f 6 4 4 4 3 3 3 3 3 3 < < ] ] ) ) : ) < < ) ) ) - - - , - , - , , & & & ",
"@ $ $ , $ $ $ ; $ - ; ; # - ; - ) = ) < : ^ ] ( ( 4 ( [ 5 [ 4 ( 5 6 6 6 7 7 | | / 6 7 b c 9 g g o k z w D B F F I K S X ` *./._.[.[.{.;.%.@.W S K J D A z s q o k g g g k p r i i a d f f f 6 2 6 6 4 5 5 4 4 3 4 ( ^ ] ] ] ) ) ) ) ; - ) ) ; - - $ $ - @ @ @ & ",
"$ $ $ $ $ $ $ # $ - - # ; ; - ; = ) ] ] 4 { ^ 5 / 4 4 [ [ [ [ / 6 6 6 6 7 | b / | b c g g g n k k w B w B E F I I R X #.,.8.d.o.o.b.8.[.'.%.` V Y W K E F B A z o z q o u n n g g g a 9 b 7 d 6 6 6 5 5 : 4 5 4 ] ( ] ] ] ) < ) ) ) = ; ; ) - - - , $ - - $ @ & ",
"$ $ . $ $ $ $ $ $ $ # ; # ; ; ; ) ] > ] 4 / ^ ( 5 ( [ | | [ [ 5 d 6 6 6 6 6 b [ 9 0 g k g k q o w B E E H F O N X ` %.].9.o.R.3+}+W.m.9.[.,.#.@.` U S S I O H B u w z o n n n h k g i i i a a 7 7 6 5 5 5 5 5 4 ( ( ( : ] < < ) ) = ) ; ; - - - , $ - $ @ @ $ $ ",
"$ $ $ $ $ $ # $ # # ; + ; ; = = ; = > ^ _ [ [ / [ | [ d [ | | [ d i f 7 f 7 a | g c g g k o w w A B F F I K S V @.*.,.4.h.S.w+E+E+m+W.h.4.].,.#.X V S O O O H B E w w w w k h o n g m g a a 7 7 7 1 6 6 5 5 5 [ 5 ( ( ( ^ ^ : ) ) ] ) ; - ; , ) $ # ; , , $ @ $ ",
"$ $ $ $ $ # # # # ; ; # ; ; ; = = ) > ^ 4 4 6 ^ [ [ [ 5 [ [ [ [ b b a 7 b b 7 a k g k o o q w x J B F I K O N ` %.~.(.9.z.}+E+5+d+G+:+w.c.1.!.=.#.` R S I K F F F E B w A q q h n h h g g g a d 7 6 6 7 6 2 5 4 5 4 : ( ] ^ ] ) ) ) ) ) - - - - $ # $ $ @ $ $ @ ",
"$ , $ $ $ $ - # # # ; ; = ; ] ] ) ^ ] ^ : _ 6 ( _ [ [ [ [ 1 | | i 7 a b 7 b 9 9 h k k o o q w E F F F K K P Y +.=._.3.h.N.n+E+=+~+C+m+L.i.9.<.;.%.X R S O K K J F H B B w w n h h n k g g i a d d f 7 7 f 6 6 5 5 ( 4 ] 4 ] ) < < ] ) ) ) ) ) - $ # $ - $ $ @ @ ",
", $ $ $ $ - # # $ - # ; ; ; = = ] : ] ^ { [ [ / [ [ [ | [ [ 1 8 9 7 a 7 b g c c k k o q q A B E E H H K O S @.;.,.|.0.q.Z.D+k+ +#+s+w+W.r.c.4.(.=.%.` R S S I I I I B B A w w w o q h g n g g a a d f d 7 6 6 4 [ 4 5 4 ( : : ) ) ) ) ) ) ) ) ) # # $ $ $ - , & ",
"$ $ $ $ $ $ # , ; ; # # ; ; ) ] ) ^ ^ ( _ _ [ [ [ [ | [ 7 a c c 9 9 | 7 9 9 c k k w q w F F B F H I O S S Z =.,.^.7.h.A.(+F+5+ + +e+F+;+y.k.4.|.!.;.#.Z R R I I K O I F F E B B w q o h i g g p i d d 7 7 b 6 6 [ 5 4 4 ( ( : < ) : ] ) = = ) ) - # # $ # , $ $ ",
"# # # # # # # + # ; ; + + + * * * * * ! ! * | 1 | | | a c h 9 8 c 9 d a c k h k u B I I O O O N V V ` ` +.,.;.].4.a.q.N.g+E+=+X.X.|+F+3+G.n.6.|.~.;.%.+.V V P K K N N N I I F I B B A u B w q k c c h c c c e a | | | [ { * ^ ^ = ) ; ; ; = > ; ) - # ; # $ $ - ",
". . . . . . # . + + # + ; + * * ^ ^ { ^ * * * ! _ [ | 7 7 7 1 [ 7 d g a c g k u w A B I F F K K O N V ` V Z ;.:.6.m.u.U.B+n+ +T.T.#+z+m+U.v.d.1./.'.&.` ` V P J H H F F F E F x z u q o n n h c b i b a c g a 1 [ [ / ^ ^ ^ ^ ] ] ] ) = ; ; = ) ) ) - - ) - ; - ",
"$ $ . $ $ $ $ # $ # # ; ; ; = > > = ] : ( = ^ ( [ [ 7 [ [ [ 5 6 7 d a d g h n h u x A A E B E G H I P V Z ;.,._.4.e.w.'+F+6+U.M.P.Y.j+D+@+y.k.6.1.!.'...W S Q K J H F A D z w q o n h g g i r b d d 7 a d 7 7 6 [ 5 4 4 ] ( ] ^ ] = ) = ; = ) ) ) - - - , - - - ",
"$ - - $ $ ; ; ; - ; ; ; ) ) ) ) ) ] > : ( < / [ 5 5 4 5 5 5 6 6 6 f 4 2 6 g h n g n z B B E A F H O P S Z #.#.,.3.c.D.9+E+,+M.J.M.P.:+D+/+D.l.c.8._...@.@.V X S I E E D z o o o 0 g g p i i p n d 6 f 7 f 6 f 6 f 5 4 4 4 3 4 ] ] : < < < < ) ) - ) } - , - , } ",
", $ $ ; ) - # # ; = ; ) > : ) ^ ] - < ^ ^ 4 5 5 _ [ 6 7 8 b a i a g i i g n n s z x G I H E E K S P S ` @.@.!.4.c.p.N.r+v+ +J.I.I.J.&+B+m+Q.w.f.7.1.].;.@.X V S I I J E A A w q n k o g g b i i g i f i a 7 f 5 1 6 5 5 5 5 4 : ] < < < < < < < ) - - , , , - - ",
"$ $ $ $ # ; ; = ; = ; > ; ( ^ ; # ) > / 5 [ 1 1 7 | 8 g b e g g g g n o u u x A E E H K I K F S V X X #.*.~.<.7.g.w.Z.B+0+W.F.B.B.I.Y.j+v+U.y.l.a.3.^.,.%.@.@.X R O M J E A z q o w u n o g r r m p r i a i 8 7 7 [ 5 5 5 4 4 4 4 4 ( < < < < - ) - ) - - - - - ",
"$ # # $ # # ; # ; + ; = ^ [ ( = # ^ ^ _ 1 [ 1 1 8 7 e a g g g g n o h z x z E F J I K P O P U V Y ` +.%.;.~.<.a.r.A.:+F+{+K.B.v.v.F.Q.6+F+;+B.n.c.3.].;.%.+...Z Y P O H G B B B x q u q n h h j p i r d i a a f 5 5 5 4 4 4 4 4 : ] < < ] ) ) ) ) ) - - - - , - ",
"$ # $ $ # # ; ; ; = ; = ^ ^ ^ ; ; ( [ [ [ [ 1 7 1 a 9 e 7 9 g g h l o z A x E F H P O O O U U ` Z Z +.*.;.^.|.i.v.K.9+C+ +A.v.n.u.x.F.)+F+3+G.q.c.7.:.~.*.=.;.#.Y S O I F E B B A w w u o h h h l r m i i a d 7 7 1 5 4 4 4 : 4 ( ( < < < ) < < ) ) ) ; ; - - - ",
"$ # $ $ # # ; = ; ; = * ^ : ^ ; + ^ { [ | [ 1 8 7 a a a a e g g h o n w D B F F H K O O S U S X @.@.%.,.~.<.7.l.u.Q.r+g+U.x.r.n.p.x.F.Y.B+m+N.v.i.0.|.].+.%.#.+.R P O I H J F B B B w z u o o o n p g g a 8 7 | | 6 5 [ ( 4 ( 4 : ] < < < ) ) ) ) ) ) ; ) - , - ",
", # # # # # ; = ; = ; > ^ _ _ ; + ^ ^ _ [ [ 1 1 7 a a a a g g 9 k w o B B E F H H O S U S S X Z ..&.;.,.].4.a.p.v..+F+}+K.v.l.g.n.q.E.U.g+v+U.y.n.e.3.~.*.*.#.+.X S N K K I H F F E B D w q w w u n i e g e b f | [ 5 5 4 ( ( ] ( 4 : : ) ] ] ) ) ) ) - - - - - ",
", # # # # # ; = ; > > * ^ ^ _ = # ^ { { 1 1 7 1 7 7 1 8 g g g g n w x E E F H H H S V V ` X Z @.%.*.;.~.(.|.c.p.D.[+C+&+y.q.g.e.g.n.x.K.:+G+'+A.s.f.7.(.=.;.%.#.Z ` S S O I I H F H G E B B x w o n g g g e a f 6 [ [ _ _ ( ( ( ( ( : : < < < < ) ) ) ) ) - - - ",
"# # - # # ; ; ; = ; > * ^ ^ { * ; { { _ [ 7 1 1 8 7 c g c g g o u x G H K K I K S Y X ` Z ` @.+.%.,.!.~.|.7.e.l.K.k+p+U.v.p.f.c.e.l.q.B.++z+0+N.v.l.7.:.;.).,.*.+.` V V R O P O H F H F F B x w q n i i g g a 8 7 1 [ 5 4 : ( ( ( ( ( ] < < < < ) ) - ) - ) - - ",
"# $ # # = ; ; > * = ] * ^ * _ _ * ^ _ [ 1 8 7 a 9 g c k k o k u u B I K O O R V Z Z %.Z +.+.;.,.,.].<.<.9.e.g.u.U.v+9+K.q.i.a.a.c.g.s.E.U.f+r+U.B.n.c.5.^.;.,.~.,.=.%.Z ` ` ` ` V K K K I F F x o u n n l n g a 8 7 7 6 5 5 _ ^ ^ ] ^ ] > ] ; = ; ) ) ) ; ; ; - ",
". # . . + + # + + * * ^ ^ * ^ ( [ ! { ! | | a b 9 c h 9 o u B B F K K S S N N V Z Z +.+.+.#.%.#.,.,.].(.4.a.i.w.'+F+/+A.n.h.a.a.c.g.q.B.Q.1+C+$+B.p.a.3.<.!.=.#.%.=.%.+.Z V V R S O I I K I I B A w z u k g 9 a 1 [ | | [ 5 _ _ ( ^ ( ) * = = < > = ; # # # - ) ",
"$ , , $ $ # ; ; ; = = ( 4 ^ ^ ^ ^ ] ^ { 1 | 8 1 a a 9 g o w w B F K I H H I V U Z V  .X ` ..#.#.'.^.<.|.6.c.q.K.3+C+++y.q.a.6.7.3.0.f.v.E.=+B+3+K.v.g.7.3.(.!.*.+.+.%...X S S O J H F E A x B u s z w n g p i 7 7 7 1 5 1 4 4 4 4 4 ( < < < ] = < - - ) , - - - ",
"$ $ $ $ # ; ; - ; < ) ( ] ( : 4 ( ( ^ [ 1 8 1 d 1 d b g h o D G G F G F M P S P W Y ` Z ` @.` ;.;.].(.4.0.e.s.Q.g+p+U.u.e.0.7.7.a.c.k.p.v.U.o+k+Q.x.l.c.3.(.~.!.*.*.@.X P U O J G G B D z n o s z z h p r p i d d f f 6 6 : 4 4 : 4 < 3 < < 3 ] ) } - ~ - - , ~ ",
"@ - - - ) - ) ) ) ^ ] ( [ 4 5 [ 5 [ ( 4 5 f d i f d g o z z E E G K P Q O V X W V ` $.%.#.#.*.;.~.(.1.9.c.p.y.Y.B+3+L.s.g.7.3.4.7.c.f.q.u.N.b+t+Y.B.p.f.7.|.~.~.,.;.#.+.` V W P I I I Q H H E E D A o o n j j g i d i f 6 6 | 5 5 4 : 3 < 3 ] < < < < } } } } } ",
"$ $ # # # ; ) ) > ^ ^ ^ [ _ [ 1 1 | [ 1 a a m h g h o x B E H H K O P H U ` V P ` +.=.;.,.,.,.!.~.(.<.a.l.r.D./+D+'+z.k.e.3.|.<.<.7.a.l.u.E.{+D+'+E.x.g.7.5.:.].,.;.#.#.+.@.V X V V P N O I H H I F D z q g g g i i f 7 f 7 1 6 [ 4 ( 4 : : < ] ) ) ) - } , } } ",
"$ - - # ; ; = > = ^ ^ ^ [ [ [ 1 7 7 7 a 9 g n n o u z B F O H O O O S U X @.V X +.%.;.;.].,.,.].:.3.7.c.n.v.N.9+p+U.v.l.0.4.|.<.4.6.7.c.p.v.Y.y+0+N.x.p.e.7.|.:.].).,.;.;.%.Z Z ` ` V V O O O H I H G D z u n h n h i d f 7 7 1 6 5 4 4 ( < < ; > ) ) ) ) } - } ",
"$ ; # ; ; ; ; = ] ^ > { { { [ 1 1 a 7 a g o k o z D B J H H U K O S Y Z Z #.Z X =.;.~.~.].~.^.^.|.6.a.l.q.B.U.t+j+N.s.g.7.6.4.|.<.3.6.c.p.v.P.d+m+U.B.q.l.c.3.<.:.(.^.~.!.'.%.+.+.#.@.@.X V O O I K H F F A u n n n h g d 9 7 1 [ 5 ( ( ( : < * < ) < ) ) ) - - ",
"# ; ; ; ; ; ; = ] ^ ^ { _ [ [ 7 8 b 8 a g g h z o E H J K O P P P Z +.@.*.+.@.+.;.!.].:.<.|.|.4.6.a.g.q.v.B.'+D+}+G.n.e.6.|.:.(.|.|.6.a.l.s.K.6+D+++E.v.n.g.a.3.4.|.:.^.].~.,.%.%.#.+.#.+.` V S P O K H F A w w n n h g f a 7 7 [ [ 4 ( ( : < = ] < < ) ) ) ) - ",
"# # ; = > > ^ ^ ^ ^ ( ^ { [ 1 7 8 8 a g g n x u B J E H O O P V Z #.%.*.,.*.*.%.!.(.<.|.4.7.0.a.c.g.n.u.B.J.0+D+*+y.n.a.7.|.4.<.|.|.3.7.f.u.B.!+E+:+G.x.s.n.e.a.6.7.4.|.:.:.].,.;.%.#.+.#.+.+.X V S P K H E x u u o o g i d a 7 5 [ 5 5 : 3 < ^ ) < ) < ) ) ) - ",
"# # # ; ; = > ^ ^ ^ ^ { [ 1 [ 7 8 a c h n n w q G H G O K U S @...,.;.*.!.!.,.,.(.|.|.6.9.c.g.l.l.n.v.x.F.U.w+z+T.v.l.0.6.3.<.(.^.(.<.5.a.n.B.Y.C+a+U.F.x.p.l.g.c.c.a.7.6.4.<.~.;.;.=.%.%.+.+.#.V R S O H J B w w w o j i d 7 1 1 5 5 4 5 < : ^ ] < = ) ) - ) - ",
"# # ; ; > ) ^ ^ ^ ( ^ { ( _ 1 7 a a g o h u B u E F K S O U X @.%.,.!.,.].~.~.^.4.4.a.c.f.l.n.q.u.x.E.I.M.,+E+j+K.r.c.|.|.<.].].(.(.:.3.a.f.v.Q.k+t+ +M.F.B.s.q.n.g.e.0.0.0.5.<.].^.^.,.~.;.*.+.` X S P O H H B B z u g g i 8 7 1 [ 5 5 4 3 : ^ : ] < ) ) ) ; ) ",
"# # ; ; ; * ^ > ^ ^ _ { [ [ 1 7 8 e g o o B E F G H U S W ` ..;.!./.!.<.(.<.(.4.5.a.h.n.q.s.x.E.E.I.P.Y.{+r+B+{+A.l.c.|.(.^.^.^.].(.:.<.6.e.n.D.<+F+g+{+Y.P.F.B.x.v.p.n.i.g.e.7.|.4.|.:.^.].,.,.&...@.Z S O K E B A u n g i a 1 7 [ 5 _ ( < ] ^ ( ( : < ) ) ; - ",
"+ + + + + + * * ! ! ! [ ! [ | | c k h q x F F O S V V %.+.*.!.(.).(.:.(.<.4.6.7.a.n.q.x.B.E.G.Q.Y.^+i+s+D+D+a+Q.r.l.7.|.(.,.%.#.;.=.).~.].|.c.q.V.g+F+E+A+j+<+++Q.K.B.x.x.v.q.l.c.a.a.7.<.3.3.(.^.;.'.,.%.@.P F I I B u o o c a 9 | [ [ { ] ] ^ * = = = > ) ) ) ",
"$ $ # # ; = = > ^ { [ [ 1 1 1 8 g k o u B H J V V X ....;.!.^.(.[.:.4.9.a.e.k.q.v.B.E.N.U.@+2+h+y+B+z+n+6+@+L.o.k.0.6.|.].).;.=.*.=.;.~.(.4.0.l.v.R.>+8+e+q+B+A+h+1+.+M.E.y.y.v.q.n.l.c.c.4.4.|.!.!.,.#.*.Z P O H D x o h c c a a ! ! ^ ^ ( ^ ( : = = ; # + + ; ",
"$ # ; ) ) : ) ^ ^ ( _ _ 1 7 8 7 9 9 c n x x G H Q W $.>.*././.4.4.9.c.i.l.u.x.G.Q.U.)+a+p+B+B+s+f+]+.+N.z.t.l.i.a.0.4.:./.!.;.,.=.%.!.].^.^.|.c.i.q.v.z.R..+~+5+l+x+B+o+4+$+M.K.B.A.y.r.p.i.a.9.<.[.{.;.$.` I H D s l h h c 9 7 7 [ 5 4 4 4 ( : < < < < < ) ) ) ",
"; ; - ) < ) : ] : 4 5 5 5 f 1 a 8 d i h n s G G J ` -.{.[.<.4.d.d.m.q.v.D.N..+<+f+u+B+z+t+a+)+W.H.o.l.k.h.k.h.c.0.3.1.<.(.].].!.,.=.;.,.^.[.<.4.0.f.n.r.v.v.v.H.`.>+5+h+y+A+l+4+-+Q.N.G.y.v.o.h.d.8.}./.>.$.T M J z s p p i d 7 6 6 6 4 4 4 : 3 < 3 3 3 < < } ) ",
"- - ; ; > > ^ : _ _ [ 6 d i e 7 7 i n k u B E P &.;.[.1.b.h.o.q.w.G.N.*+4+o+y+B+A+i+5+%+S.D.r.q.n.l.m.i.h.6.|.|.:.:.[.^._.~.!.,.;.*.*.%.;.].:.|.a.c.h.f.i.p.q.v.x.y.H.Z.%+2+i+z+C+x+h+}+$+M.D.A.w.o.k.b.4._.'.&.X J G u j h g g i f 6 6 5 4 : 4 : 3 : 3 3 < } } ",
"; - = # > ^ ^ ^ ( _ [ [ m m g 8 1 g n z B H P @.!.[.0.k.o.D.K.Q.*+7+q+A+x+u+f+]+.+S.z.y.y.r.n.l.i.f.a.0.9.4.|.1.:.(._.^.!.,.*.;.%.%.*.;.!.].].1.<.4.0.0.c.c.f.n.n.r.y.B.F.G.V..+^+a+o+z+B+s+4+-+S.K.G.z.o.j.8./.$.U M z n h j g i d f 6 5 5 5 4 3 < < : < < ) < ",
"; ; ; ; > ( ( ^ _ _ [ 1 a g e | 8 g o z F O ` %.1.d.z.K.`.(+e+s+A+u+h+5+%+S.H.p.u.q.q.n.l.f.c.0.3.<.|.<.(.^.~.!.!.;.=.=.%.%.#.+.@.+.*.%.=.;.~.!.].].^.<.<.4.7.c.g.i.l.p.v.x.B.F.G.L.Z.=+|+e+s+z+x+i+}+$+Q.G.o.4.,.X Q C n p j e 8 7 6 5 5 5 5 : : ] ] : ] < < < ",
"- ; ; ; > : ^ { [ [ [ 1 e g h | 7 g u B H S Z _.j.S.}+i+z+A+u+e+]+++W.D.v.p.l.n.l.g.c.0.a.3.|.<.:.(.:.(.].^.~.].;.=.=.%.#...+...+.#.+.#.%.*.,.!.!.,.!.~.].(.<.3.6.a.a.e.i.l.p.v.B.B.B.F.G.V.Y.,+b+p+z+C+p+9+Z.t.<.*.P J C h h i 8 1 | [ 5 5 4 ( : : ( < < < } } ",
"; # ; ; ; > ^ ^ _ [ [ 1 8 g h 7 a o z J K Y +.8.S.n+D+z+f+~+Y.Q.G.E.x.v.n.l.i.f.i.c.0.7.3.|.:.:.(.^.:.(.^.^.].,.=.%.#.+.Z Z ` Z Z +.+.+.#.%.*.;.=.;.,.,.!.].:.<.<.4.5.7.a.c.i.i.l.q.v.B.B.E.F.F.N.Z.>+8+t+C+n+W.8.'.` K D o j i e 1 1 1 [ 5 5 ( : : : < < < < < ",
"; ; ; ) ) > > ^ { _ [ 1 a e g 8 a o D J S ..-.j.'+G+5+#+Y.J.I.E.B.B.x.n.l.g.g.a.a.7.0.3.5.3.|.1.<.(.:.].].~.,.=.=.+.+.` ` +.Z @.+.+.+.+.#.#.=.*.=.=.,.,.~.~.^.:.<.|.4.3.6.5.0.c.i.g.n.p.v.x.x.F.J.M.J.Q.#+o+E+&+0./.@.M E u l g g b 7 1 5 5 5 4 4 ( : : < < ) ) ",
"# ; ; ; ; ^ ^ { { [ [ 1 1 a g 7 e z x J P ` ;.8.'+F+j+2+&+X.P.M.I.F.E.x.s.n.l.l.e.c.a.7.6.4.<.|.|.|.<.:.^.~.;.%.+.+.+.+.....+.+.Z ..+.+.%.%.%.=.;.;.;.!.~.~.^.(.|.|.4.5.6.6.a.e.l.l.q.q.B.F.F.J.M.T.X.=+2+y+w+Z.b.!.&.P E u n g j 8 7 1 [ [ 5 4 4 4 ( < : < ) < ",
"# = # ; ; ^ ^ [ [ [ 1 ! 7 g m e | o A H U ` ,.8.S.9+C+D+B+g+:+++T.M.J.F.B.x.s.q.l.g.g.c.a.7.6.|.|.|.<.:.^.~.).=.+.+.#.#.+.+.Z #...+.Z +.+.#.%.%.,.,.,.].^.^.(.:.6.9.7.7.a.a.f.l.n.v.B.x.E.F.M.T.@+2+o+C+D+E+{+C.8.'.Z H G u n g m a 7 [ 5 [ _ ( : ( ( : : < ) < ",
"# + # # + * * * ! { ! ! 8 7 g g a 9 s F P ..{.8.j.O.=+5+j+A+D+y+h+1+%+T.M.F.B.x.x.q.l.l.c.a.0.7.6.3.:.(.(.].).,.;.=.%.+.#.` Z +.+.+.#.Z %.%.=.;.].].].|.:.6.9.6.a.c.c.e.f.i.n.r.v.B.F.M.T.;+2+d+u+A+v+g+{+Z.C.j.}.*.O E B u k j c 8 [ [ _ _ [ { ^ * = * = = = # ",
"# # ; # ; * > ] ^ [ [ [ 1 a a e l n o u B P *._.d.k.t.z.V.@+|+j+t+B+B+q+7+!+U.J.E.x.v.s.n.l.f.7.7.7.5.4.|.(.(.~.].,.%.%.%.=.%...+.Z +.+.=.=.,.,.].~.<.|.5.9.a.e.l.l.g.l.r.v.y.A.K.U.;+7+l+y+u+s+b+)+W.H.t.j.b.[.%.V O F C n g e e 7 [ 5 { ( ( ( : : ) ) ; ; ) ) ",
"- ; ; - ; > = * { _ [ 1 1 8 1 a 9 k w J O U @.'.{.8.j.m.o.z.w.O.`.~+8+i+x+y+u+f+/+Z.K.E.B.y.s.n.g.f.7.7.3.:.].~.,.=.#.%.#.+.` Z Z +.#.%.#.+.%.=.;.~.].(.<.0.a.h.l.n.q.r.y.G.W.^+c+q+x+u+h+5+%+W.H.t.o.j.d.2.}.'.$. .M E w n h j i d 6 5 5 { > ( : : : 3 } } < ) ",
") ) ) < ) ) ) ^ ( [ 1 [ d m i e j o u G M X &._.4.b.d.m.m.n.q.r.w.v.H.V.@+|+e+y+z+x+o+<+%+P.K.E.B.v.r.n.i.0.|.:.^.!.*...Z Z Z #.Z #.+.+.#.*.%.%.,.[.4.3.c.h.p.q.r.y.B.Q.!+d+q+u+q+f+^+`.L.z.o.o.m.m.j.d.b.8.4.{.-. .T J C n t m m d d 5 4 4 4 4 ( 5 : 3 : 3 3 } ",
") ; ) ) ] ] ( ( 5 1 [ 7 7 a e h h u o G H U ..*./._.}.9.9.d.d.h.m.l.w.y.v.z.R..+]+b+s+A+z+u+a+^+Y.J.F.E.x.r.n.e.7.<.]./.'.*.%.+.Z #...&.%.*.~._.1.9.h.n.r.v.A.K.`.<+d+u+y+s+c+]+Z.H.t.o.o.k.h.h.d.d.b.9.2./.*.@.W M J D C n l h e i d 6 6 : ( 5 5 4 4 < : : < ) ",
"; - ; ) > > > ^ _ [ 1 7 8 8 a a 9 h o B B H U Y &.,.(.[.2.3.6.9.0.c.c.a.h.l.r.r.v.O.Z.,+8+i+y+B+u+f+_+Z.M.F.y.p.i.6.:.!.~.;.%.%.%.#.+.%.;.!.:.9.c.r.y.E.S.!+7+l+x+q+p+8+)+V.H.w.w.r.t.o.h.d.0.b.3.2._.{.&.@. .W L G D s l g g j 8 1 1 5 4 3 ( ( ( : ] > < < ) , ",
"# # ; ; = > > > { 5 [ 1 7 1 8 a e g o x E H H O  .@.%.;.,.,._._.(.|.6.|.6.6.9.e.q.r.y.B.G.S..+|+e+s+z+y+j+}+W.A.l.0.<.].!.;.=.%.#.%.%.=.!.(.3.c.u.S.<+h+y+A+q+d+|+@+V.A.y.w.p.n.i.c.a.9.6.1.<.(.{.'.-.&.@.W U J A z z u h j g a 7 [ _ [ 4 3 5 ^ _ ^ > > < < ) - ",
"# ; ; ; > ^ ^ ^ { [ [ [ 7 8 e 8 c j k o x F H O Y V Z Z #.*.,.!.(.1.|.(.~.<.4.3.7.c.i.l.q.u.y.A.R.Z.]+b+t+D+n+U.r.e.3.<.,.=.%.%.;.;.,.].^.|.a.p.N.h+A+p+b+]+W.L.w.r.q.l.k.e.d.a.6.1.:.<.[.(._.*.*.*...@.U W Q G E u s n g e a a 7 1 1 _ _ : ^ { ^ ^ ] < ) ) ) - ",
"# # # ; ; > ^ ^ ^ [ [ 1 1 7 a e e c k o o B F F O U V @...` %.,.,.].~.!.!.^.(.|.4.6.7.7.c.l.l.q.y.A.E.Q.++k+G+!+D.p.0.<.^.,.,.;.=.;.,.~.(.6.g.y.(+D+b+Y.N.v.y.u.q.n.i.c.6.9.3.:.^.(.!././.!.'.*... .` Y O O M J D x s o j m e a 8 1 1 _ _ < ( * * ^ > ) ) ) ) ) ",
"# # # ; > * ] * ^ _ _ 1 8 1 8 a e g s s n x G E H O S W V ` Z %.+.;.,.;.;.;.].(.:.|.1.5.6.9.0.e.i.r.v.A.F.&+F+0+N.u.c.5.(.~.,.,.;.;.~.].|.c.l.G.j+F+++E.v.u.l.h.0.7.7.4.4.<.].~.~.;.*.*.'.*.#.@.` V V P O H J E z o l j e e 8 a 8 [ [ 1 ( < ( ^ ^ : ^ ) ) ) ) ) ",
"# # # ; > = > * ^ { { [ 1 1 7 7 e g n s z n B E F G Q O S R V ` Z #.=.%.&.#.=.=.,.].].:.:.<.|.6.7.c.l.q.y.W.k+v+T.A.l.0.|.:.~.,.,.!.].^.|.a.n.Q.y+m+Q.B.q.f.c.7.6.4.:.^.~.,.,.,.%.#.+.&.@.Z X Z S Q K H H J E z u s n g g a e a 8 1 [ 5 _ < : ^ ^ : ) ) ) ; ) ) ",
"- ; # # ; > > > ^ ^ { [ [ [ 1 7 8 a g n c g u z F F J H K O V Z ` ..+.Z Z ` Z #.=.;.,.].~.^.:.:.3.0.f.l.v.K.3+F+'+E.q.c.6.:.].^.^.].(.<.6.i.v.*+D+3+G.v.l.c.7.5.3.<.^.,.;.;.'.'.*.;.@.` V U U O O K F F G E z u n n l e e 8 a a 1 1 5 ( : < : ^ ^ > ) ) < ) ) - ",
"# # # = ; # ; > * ^ ^ * { * ! ! | | 8 a o a c o u B F F F I O P S N V N R O N V +.%.%.%.%.;.=.,.,.].a.l.s.B.,+F+9+K.p.f.6.<.(.^.].:.|.3.e.l.D.4+E+&+B.p.c.a.3.3.:.^.,.;.;.%.%.@.@.@.X Y S U U O O K F F D E z o u n j e e 7 8 1 1 [ _ ^ ] 4 : : ) + ; + # = # ; ",
". # . . # + # ; = ; * * * { ! _ [ 1 8 a c c h c h o u k u x x B H H I S S P S I I K N N ` +.=.!.(.1.6.c.p.B.Y.w+t+N.v.g.a.9.4.^._.^.(.5.a.p.K.o+w+U.y.h.a.6.<./.,.#.#.#.` V S S P O H E E E x E x z o h 9 9 e 9 g c e 8 | 8 1 1 _ { ^ > ( 4 ( ( ) ) ; = - # $ # ",
"$ $ , # # = > ) > ^ ^ ^ _ { _ [ 1 1 7 a e h j l j o E z B B F M O O P U O O Y V @.Z X ` +.%.'.,.~.[.9.0.m.y.N.0+E+Z.v.l.c.9.5.3.1.<.5.a.f.u.Z.B+0+K.w.k.c.9.<./.,.!.;.#...&.$.Y U W W P K H F D E E D z B C o n c e e e e e 8 8 [ [ 1 5 ( : ( 4 ( ) ) ; ; ) ; - ",
", ; - ) ) ) > : : 4 ( 4 _ _ _ [ [ f 1 f e s y y z C D J L Q U Y X  .@.@.@.$.&.*.;.&.%.,.'./._.!._.4.9.a.n.w.B.{+E+(+A.s.i.a.3.3.4.3.0.c.l.A.<+D+/+A.r.h.0.1.4.[._./.{.,.&.@.@...$.@...@. .Y W T Q G z u s n g j l l l j a e 1 1 [ 5 5 _ 4 ( : ( 3 3 3 : 3 < } - ",
"# # # = # ; > ; * > : 6 6 [ _ [ 1 1 8 7 a e g h u y D G G F J O Q U U O S V S X @.@.#.&.*.!.,._./.(.1.9.c.n.v.Y.B+g+K.q.i.a.9.|.1.6.a.i.s.G.i+D+Z.y.p.a.9.4.[._._.{.;.*...*.&.$...Y U S P P J G D D C D z j s l n l e e e 8 8 f f f 5 5 5 : : : : 3 < < ) ) } } ",
"# # # # # ; ; > # > * ^ 1 [ { ^ [ [ 1 a 8 8 9 c h h k o u B B E F H Q K O K S S S R V Z Z %.+.;.,.].(.5.a.l.y.S.g+p+Q.v.l.c.6.5.|.9.0.l.v.Q.s+k+N.u.m.0.1.<._.,.#.V V U X Y  .V W V Q O I E C C A x u z u o h h s g 8 8 1 1 1 [ 1 5 5 ( : ^ : : : < < ) ) ) - - ",
"# $ $ # # ; > # ; * + ^ _ _ _ * _ 1 1 | 8 8 8 e 9 g c k k x y D B D F I H H K H O S P U V @.%.#.%.!.(.|.a.e.r.H./+C+@+v.p.i.a.9.6.7.c.l.v.%+C+}+D.r.c.4.:.!.,.%.` X ` V U W U S O H H L F E B C z u s u h n c j e e e 1 1 1 [ [ _ _ ^ ^ ^ ( > = = ; ) ; ) - - , ",
"$ $ $ $ # # ; ; ; ; * * ^ 1 { * { _ [ 1 | 8 8 e g h j o n s u u B u x x E E F I I I O S V V Z ..%.=.^.1.6.c.n.y.++z+}+G.p.g.c.0.6.a.g.s.D.<+D+$+x.p.c.4.^.,.*...` Z U P U O I H F I H E D B x u z u s h h j g g g 8 8 8 1 _ [ [ { ^ ^ ^ > : > > ) ) ) ) ) , , - ",
"# $ # # # # # # > > * = { _ ^ > { _ _ 1 1 8 8 8 c 9 g n k k o s u u z E x E B E H K H O N R ` @.#.%.;._.9.a.k.y.U.o+g+Q.v.m.a.0.7.a.i.p.J.f+r+Q.y.l.a.^.].*...` V V P O O K M E H H F G E B B z u o s j s l j j g e 8 1 1 [ [ [ ^ ^ > ^ > ) : > ) ) ) - ; ; , @ ",
"$ $ # # # # ; # ; + = * * 5 _ * { [ [ _ 1 | 8 8 8 c c h h h h k u n u u u E B F H I O O P S V ` +.+.;.~.1.9.l.v.L.4+t+Y.x.q.f.c.a.c.l.v.W.u+0+K.v.i.|.(.;.*...` V S U O O I K F H H F E C x x s n u n g k j e e e a 1 1 1 _ [ _ { > ^ > ) ; ) ) = ; ; ) - - $ - ",
"$ $ $ $ # # ; # ; ; > * ^ [ { ^ { _ _ 1 _ 1 | 8 8 e c j h g h h s n o u s B D D B H I K O P V R +.+.=.].4.3.i.u.A.]+D+{+D.r.g.e.c.g.q.A.!+C+/+E.u.c.3.~.*.#.Z ` V O O O O M L H F F G E C C u s n n h g s h g j e 8 8 8 1 [ 5 _ : ( : ^ = ; ) ) ) ; ) ) ) - - - ",
"$ , $ $ , # # # ; + > ] > 5 ^ > { { _ [ [ 1 1 | | 8 c j l n n o o c c o n u u x B F H H K U S S V ` %.;.(.6.e.q.A.Y.x+9+N.s.l.h.h.l.u.K.a+C+Z.B.m.a.1.!.....Z Y P P O O K M J B x x s s s n n h a a | g j e e e a 8 1 1 1 1 _ ^ _ ^ ^ > > ; > ) ; ) ; - , , - - ",
". . . . $ . # # + # # ; ^ ( 5 ^ * * * * * ! ! ! ! | | 8 e c c c c c a a c c o o x B E J H O V V S K S Z *.<.9.i.s.N.f+t+T.E.p.i.i.n.u.P.s+n+Q.r.k.9.].'.....V O O I F I E u x x u u s o k h g c g n n n g c e | | 7 1 1 [ [ ^ * * * ^ = ; ; ; + # # . . . $ . @ ",
"$ $ $ $ $ - # # # ; ; > > ^ ^ 5 { { { { _ [ [ 1 7 | 8 e a a c g c l o o o k h o z q u D F K O U O W Y ` ,.1.3.h.r.G.<+C+@+B.v.n.n.q.x..+B+}+G.q.c.<.;.#.` V U F F G D B B B z x D s u o y u n u s c e a e a a 1 1 _ { * ^ ^ ^ > = * > ; > ) ; ) ; ; - - ; - - , ",
"$ $ $ $ $ # # # # ; ; ; * = ( _ { 5 5 [ _ _ [ _ 8 e 1 8 c j h n n l k n n u z k o u z F H I O V @.Z ` ` #.,.<.d.n.v.@+B+(+K.x.s.r.y.G.<+B+$+w.m.a.[.!.%.` W U T T H H J E E G A z u C u g u l h h g j j h h 8 1 1 1 [ _ ^ > : ^ : ( ^ ) ) = ) ) - - ; ; - @ , @ ",
"$ $ $ $ - # ; ; ; ; ^ > ( : 5 5 { 5 ^ [ 1 1 1 8 a m l l n s o n g c h o c n u x u B B L Q W ` @.$.&.>.'.!.!.[.a.i.q.Q.s+g+Q.B.x.x.x.M.i+t+Q.w.i.9._.;.*.@. .W T Q J H G L Q H G E G G G D u C s n s s s j j a 7 1 1 1 1 5 5 5 5 4 ( ) = ) ; ; ) ) ) ) ) - } , ~ ",
"# # # . # $ # = ; > ; = * * > ^ ^ [ { { { _ _ [ [ 1 1 8 a c n y s j a k 9 C z u x E u z F H O S ` ` ..&.'.!.(.1.i.r.K.4+t+T.F.E.B.E.P.u+g+K.u.a.2.!.%.&. .V O F B H O G M F G E E E z y u u u s s l h h g m g 8 8 1 1 1 5 4 _ : ( : < < < ; ; # ; ) ) < } } - } ",
"$ . # # . # # ; ; # > ; ; * = > * ^ * { * { [ [ 1 1 ! | a a e j c h e h a h n k o z C B D D F O S U Z Z &.*.!.1.0.m.z.!+D+'+F.F.F.F.*+y+(+A.l.0.[.!.*...Y W Q M O K H H B B C B z u u s h n c j c 8 8 | 8 1 7 1 1 [ _ { { ^ ^ ^ ^ ^ : < ) } ; ; ; ) ; ; - - $ - ",
"$ $ , $ # # # # # = # + > * * * * ^ > * _ { _ _ [ | 1 1 8 | 8 g h n n o a h o o o u x B E x F H O P U Z Z *.!.[.9.m.r.W.x+9+M.I.J.M.7+x+Z.w.i.6.[.,...Z W P O H H K F D x y s z n o n k g c c 9 c 8 8 8 1 | 1 1 1 [ [ _ ^ ^ > * = = ; = ) - # ; ) ; - , $ $ , - ",
"$ $ $ $ $ $ $ # # # = ; ; ; * + * > ^ * * { ^ _ [ [ 1 | | | 8 8 j g h n c n k s k o o s y u B F O O U V @.#.{.(.8.c.q.N.c+i+P.I.I.P.l+o+N.r.c.4.,.#.` Y U O H G H G D C s s n h n o n h h e e a a a | | 1 1 _ _ ! ! { ^ ^ * * * ; ; ; ; ; , # = ; ; , ; $ $ $ - ",
"$ @ . $ # # # # # # # # > ; = * = * > * ^ ^ { { _ _ 1 1 | | 8 e c g e j | g h h n n o o u D B D F H O U ` ..%./.1.a.q.K.<+A+++M.J.++x+1+H.l.b.[.,.&.` U U Q M G G J D u s o n n n n h h c c 8 c | | | 1 [ 1 [ _ ! { ^ ^ * ^ = = ; > ; = ) - # ; ; # ; - $ - $ $ ",
"$ $ $ $ $ # $ $ # # # = ; ; = = = = = * > * ^ { _ _ 1 1 1 1 1 8 | 8 9 j 1 c e c h h s s z E x B E F K U V ` %.{.[.9.m.v.%+B+:+T.P._+z+$+w.k.9.(.;... .U O H J G G G C z s n n n h c e e 8 e e 8 8 8 1 1 1 1 _ { { { { ^ ^ > > > = ; = = ; - # # # # # $ $ , $ $ ",
"$ $ $ $ # # # $ # # # # # ; ; = # = = * ^ > * ! { [ [ 1 [ 1 1 | 8 8 a e | e a h g h o u h x C z E H H O U Y ..;._.8.i.r.U.u+g+X.T.c+p+Q.t.c.1.!.&.V S U O J G E L D z u s o n h c c e e e 8 8 | | 1 1 1 1 _ ! { { { ^ * = = ; ; ; ; ; ; ; , # # # $ # , $ @ @ @ ",
". $ $ $ $ # # # # + # ; = ; ; = ; * * * * ^ ^ { ^ { ! [ 1 [ 1 | ! | e c 8 8 e l g j o u s h x x D F H P Y Y ` %.,.1.d.w.N.c+C+ + +q+g+K.m.d.1.,...Y U O O M E B F x u s n h e c e e e e 8 8 8 8 1 1 1 [ [ { * { ^ * ^ = = > ; ; ; = # # # - # $ . $ $ $ $ $ $ @ ",
"@ . . . . . . . . . . . + + # # + + + + + + + + * * * { { { [ [ 1 8 | 8 8 1 1 | ! | | 9 c h k h h q k u B F K O ` '.8.k.H._+B+{+~+B+(+C.d.2./...X P B F x q o D x n n c 9 c e 8 a e a 8 | ! ! { ! ! ! * * * { * ^ ^ ^ + > * ; ; ; ; # $ - - ; # , $ $ . @ . @ @ ",
". . . . . . . . $ $ # # # # . . + + # + + + * * ^ ^ { ! { ! [ [ 8 [ | | 7 1 1 e e j h l h h n n u z E J J Q Y @.-.{._.d.o.++C+p+s+D+++o.b.{.&.`  .T M F E G G x z x u s u h j l 8 | 1 8 1 1 1 [ [ _ 1 _ 1 { ^ * * ^ * = = ; ; > = - # # ; ; - ; $ $ $ @ , @ & ~ ",
", . @ . . $ $ $ # $ # . # # # # ; ; ; ; ; * > > ( { { 1 [ 1 [ 1 8 8 e a a e a 8 g h j j l s u C y z x x F L L Y X *.{.2.j.H.:+w+w+/+H.b.{.>...Y U K M J L G z s h n h e c c e e e m h e m i b 8 8 8 1 7 1 1 [ [ 5 ( ^ ^ > ^ > ; > ) ) , - - - - - @ $ , @ @ , & ",
", $ , - $ - $ ; ; ) ; ; ; = # ; ; > > : > ^ : ^ 5 [ 1 1 1 7 7 e e 8 8 e e h h j j h s s E C D J L J M Q Y $. . .-.'./.}.b.j.C.V.W.C.d.b.2._.'.$. .U Q L G G H Q L G G D C z D y u y s s v e e 8 e 8 7 1 7 1 1 1 5 5 5 ] ; : : > ) : ) ) ) < , - , } } , , } } } ",
"$ $ $ $ $ $ , # # # # ; ) ; ; = + ; ; = * ^ ^ _ { { { ^ _ _ _ 1 1 [ 1 1 1 8 e a e g e j o u u u C E D G G H U @.$.@.Y $.'.2.2.8.d.b.8._.'.&.Y U L J F G G B E x y o h h h c g c e 8 | 1 1 1 1 8 1 5 1 1 1 _ _ { > > * > ) : : ) ) ; ; ) ) - - $ , , , , , & ~ , ",
"@ $ $ $ $ $ # # $ # # ; ) ; # # > + > > > ^ * ^ / { { { { _ _ ! _ _ [ [ [ | 1 | 8 8 8 c h h j h h o s u s D F H O  . .@.>.'.{.{.'.>.*.$.Y U T Q F F z D z u n h l h j e c e c e e | 1 | 1 _ ! ! { ( [ _ _ { { > > * > > ; ; # # # ; # # $ $ - , $ - , @ , , , & ",
"@ $ $ $ $ . $ $ # . $ # # > # # # + ; = > * * > > > ^ { _ [ _ ! ! _ _ 1 1 1 1 1 1 8 8 e e g j j j l n s n s B B J O T U ..@...$.` Y  .U T H D D D D x s s l o k g c j c e 8 8 1 8 [ 1 1 _ [ { ^ * : 5 _ { ^ ^ ^ > ^ ; ; ; # # # # # ; # $ - $ , $ - $ , & @ & & ",
". $ $ $ $ $ . $ $ $ $ # . # + + # + # ; > # + * > > ^ * * ^ { ^ { [ _ [ _ ! [ 1 1 1 8 8 8 e a g h c e g h s u C F M E G O T Y O U O K F F x B z z n s o n l k c c 8 8 8 e | 1 1 | 1 _ [ _ _ ^ ^ ^ ^ ( { ^ ^ > * > = ; ; ; # # ; # ; $ # $ $ $ $ $ $ @ & @ & & & ",
"@ . $ . $ . . . . # # $ # $ + # # # + + # > + + * * > ^ * ^ * { { ^ ! ! { ! ! [ 1 _ | | 8 8 e e c 9 c h k n n y D x u s D M Q T M F D z y C s n o k h k c j g j g a 8 a 8 [ [ [ 1 _ [ _ { ! ^ ^ ^ ) : { * ^ * > > ; ; ; # = # # $ ; # $ $ $ $ $ @ $ , @ , & & , ",
"@ @ @ $ $ $ . $ . $ # # $ # # # # # + + # # + = * * > * * ^ ^ ^ ! { [ { [ _ [ { _ 1 1 1 1 1 8 8 8 9 e e c j h o u D z u C F E F G B x y s s s s n o g j j g g e | 8 | | | [ [ 1 { _ { { * { ^ ^ ^ : ( { > ^ * > ; ; ; ; = # # # # # # $ $ $ $ $ , , , & & & & & ",
"$ & . . . $ $ $ . . $ # # # # # # + # + # # > > > * * ^ ^ * ^ ^ { { _ { _ ! { [ ! [ 1 1 [ 1 8 8 8 8 e e a c j l o n y n y G G E u s s n h n n n c c c g a e e | | 8 | 1 1 1 1 ! _ [ _ ^ { { _ { ^ ( ( { { * > ; ; ; > # + # # # # $ , $ $ , , $ - , & @ & & & & ",
"@ & @ $ @ $ . $ . . # # $ # # # # # # # + ; > # > = > + ^ * * * * { { { { { ! ! ! [ [ _ 1 1 1 | 8 8 e a 8 8 8 | j l l j h o s u y n o j e j h c c 9 c | 1 ! [ a 8 [ [ 1 1 1 [ [ { [ { ^ { { ^ * > ] : : * > > > ; ; ; ; # ; ; # # $ $ $ $ $ , & , , & , & & & & ",
"@   . . . . . . . . . . $ $ $ # # . . . . . . . + + + . + # # + # + + + * + * + + + + + + + * * % ! ! [ ! ! [ e c h n h a 1 a a e a a a 8 | | | | 8 [ / { [ 1 1 [ [ 1 _ [ { ^ ^ / { { ^ = = = = ^ ( ] * ^ * + + + + + # . . . . . . . . .   . . @ @ @ @ @ @ . @ ",
"@ . . . @ @ . . . . . . , $ # ; # $ $ # - # $ + # ; ; ; = = * * * * * ^ ^ * ^ ^ ^ > ^ _ [ _ [ [ 1 1 1 7 a 8 a a e l g j j j a 8 | 8 e j m i 8 a a 8 f 7 8 7 a 8 8 7 7 a 1 1 8 8 8 1 1 5 5 _ ( 4 ( : 4 ( : ( : < ) : ) ; ; - - - $ $ $ $ , $ $ $ & & & & & @ & & ",
"& @ . @ . $ . . . . . $ # $ # # $ # # # # # # ; ; = = > ^ > > = * ^ * ^ > ( _ 5 [ f f 8 7 f 8 a e j j h j g l h l h g g h n s n l l g g g a m m g m m i 7 f d 1 8 7 [ [ 1 1 [ [ [ 1 [ 5 ( ^ : ^ : ( : ( : : ; : ) # # # ; $ $ , - - $ @ , , @ @ & @ & & & & & & ",
"& , & $ @ @ @ $ $ - , ; # $ # - ; ; ; ; ; ; = ) > > * ^ > : : 5 5 > ^ ^ ^ ^ _ 6 1 1 1 7 8 e 8 h t s z s y s s j u n j z y z y s z z u s n l l l h t j j p f 8 f 8 8 8 m m e j j e e i f 5 1 1 6 5 5 1 : 4 4 : ( 4 < : ) ) , , , , , - , , @ , , @ & , , ~ ~ ~ ~ ",
"@ @ @ @ $ . @ $ $ $ $ $ . $ $ # # # $ # # # # + # # # + ; > > > : : > * > * _ _ ^ _ _ [ 1 [ [ 1 1 1 1 1 1 8 8 8 8 j 8 8 e a 8 e 8 8 8 | 1 8 7 8 1 1 1 | 7 i f 1 [ 1 1 [ _ { _ _ { { ( 5 [ _ ^ ^ > > ^ > > > ; ; ) ) ) # # - $ $ - - , - @ $ - - - & , & @ & , & ",
"@ @ . @ . . . $ . . . . . . . # # # # # # # # # # + # # # # ; ; > : > * = + > > ^ ^ ^ { ^ { { _ { [ [ [ 1 ! 1 1 1 1 [ 1 [ 1 1 1 1 1 1 1 1 [ [ ! _ ! _ [ 5 1 6 8 [ 1 _ { { { { { _ ^ > ^ * ; = ; ; ; > > = = = # # ; ; , , - @ , , - , , , , , @ @ , & , & & & & ",
"@ @ @ . . @ . . $ . . $ . $ $ $ . # # $ # # # # # # # # > # ; ; > : > * ; > * ^ ^ > ^ > ^ { { ! _ _ { _ _ [ { [ 1 1 1 [ [ 1 1 [ [ _ 1 [ _ [ _ { _ { { [ 5 5 _ _ 1 _ [ ^ ^ { ^ { ^ > ^ > * * > ; ; ; ; ; ; ; = # # # , , $ $ , $ , & @ & , & , , & & & & & & & , ",
". . @ . @ . @ $ . . . $ $ . . . . # . . . # . # # $ # # # # + # # ; > > > ; * > > * > ^ ^ > ^ { { ! ! _ _ ! { { { { _ ! 1 [ ! ! { _ _ { { _ { { { { ^ ^ 5 4 ( { { _ _ { ^ ^ ^ ^ * * * > > > ; ; ; ; # # ; # # # $ ; - $ $ $ , @ , $ , , @ & & & & & , & & & & & ",
"@ @ . . . @ @ $ . $ . . $ . . . . . . $ $ # # # # . # # # # + # ; ) ; ; # # + = > * = ^ * ^ > * * { ^ ^ { ^ { { { * ^ { { { { { ! { { { { { { { { ^ { { : : ( ! _ { { { ^ > ^ * * * ; ; ; > ; # # # ; # = ; # $ $ $ , $ $ @ & $ & & & & & @ & & & , & & & & & & ",
"@ @ @ @ @ @ . @ . $ . . . . . . . . $ $ . . # . # $ # . . # # # # = ; ; # + ; ; ; * * * = * * * * * { > ^ ^ ^ { { { { { ! { { { ^ ! ^ { ^ { { ^ ^ > > ^ > ] : { * ^ > * > ^ * > > * > ; = ; = # # # ; # # # # $ $ $ - $ $ , @ , , & & & & @ @ & & , & & & & & & ",
". @ @ @ & @ @ . @ . . . . . . . $ $ . . $ # # $ # $ # # # # # # # # + ; > + # # ; ; > > > * > * * * * ^ * * > { * { { { { ^ { ^ { ^ ^ ^ ^ ^ ^ > > ^ ^ ^ ^ ) : * > + > * * * * ; ; # + ; # # # # # # # # # # # $ $ $ - - $ , & , @ @ & & & @ @ & , , & , & , , & ",
"@ . @ . @ . . . . . . . . . . . . . . $ . . . . # # # # # # $ # # $ # ; = > + # + # # > # > > + + * * * > * * * > { { * * ^ ^ * * > ^ * ^ * = > ; = + = = ) ^ = > * ; > > > ; ; # = ; # # $ # # $ # $ # $ $ $ $ $ , $ $ , @ $ @ , . & @ & @ & @ & @ @ @ @ @ @ @ ",
"& @ . @ . @ @ . @ @ @ . . . . . . . . . . . . . . . . . . . . # $ $ # . + = ; ; ; # # . # # + . # # + + + # + + + # ; + # + + + ; ; + ; ; = ; = = = = ; ) < ) ; ) = ; # + + # . $ # # # ; $ . $ $ . $ $ , , $ $ $ @ $ $ @ @ @ @ @ & @ & & & @ @ @ & & & & @ & @ ",
"@ @ @ @ @ @ & @ @ . @ @ . . . . . . $ $ @ $ $ $ $ $ $ - , # $ - ; # $ # # # # # ; # = ; # + ; ; ; > = : > ^ > = * * * > = ^ = = = = = = ^ ( ( 4 ( : ] : : 4 3 : : < ] ) ; ; ; = ; ; ) - # - ; # # $ $ # , $ $ $ $ $ @ , @ & @ & @ @ & & & , & & & & & & & & & & ",
"@ @ @ @ & @ & @ @ & @ @ . . @ @ @ $ $ @ @ $ $ $ $ $ $ $ $ $ $ # $ # # $ $ $ # $ . # + # = ; = + + ; ; > ; ; ; = ; ^ ; ; > ^ : : ^ ^ > = ] > ) ) ; > ) : ] ) ) ) < ) ; ; ) ) ; ; ; = ; ; - - ; $ $ $ $ $ , - - $ @ @ , & & & @ & @ & & & & & & & & & & & & & & & "};
